(G-CODE GENERATED BY FLATCAM v8.98 - www.flatcam.org - Version Date: 2019/10/16)

(Name: Alignment Drills_cnc)
(Type: G-code from Excellon)
(Units: MM)

(Created on Friday, 24 January 2020 at 22:21)

(Feedrate: 3.1496 mm/min)
(Feedrate rapids 31.4961 mm/min)

(Z_Cut: -1.9 mm)
(Z_Move: 0.787 mm)
(Z Toolchange: 0.5 mm)
(X,Y Toolchange: 0.0000, 0.0000 mm)
(Z Start: None mm)
(Z End: 0.5 mm)
(Steps per circle: 128)
(Postprocessor Excellon: grbl_11)
(X range:   -2.1202 ...   52.9202  mm)
(Y range:  -70.8078 ...    4.1036  mm)

(Spindle Speed: 1000.0 RPM)

M03  S10
G04 P2
G21
G90
G94
G17

G01 F3.15
G00 Z0.7870

M03 S1000.0
G00 X-0.8668 Y2.9156
G01 Z-1.9000
G01 Z0
G00 Z0.7870
G00 X-1.7202 Y3.7036
G01 Z-1.9000
G01 Z0
G00 Z0.7870
G00 X0.2498 Y-70.0926
G01 Z-1.9000
G01 Z0
G00 Z0.7870
G00 X4.0582 Y-70.4078
G01 Z-1.9000
G01 Z0
G00 Z0.7870
G00 X46.7418 Y-70.4078
G01 Z-1.9000
G01 Z0
G00 Z0.7870
G00 X50.5502 Y-70.0926
G01 Z-1.9000
G01 Z0
G00 Z0.7870
G00 X52.5202 Y3.7036
G01 Z-1.9000
G01 Z0
G00 Z0.7870
G00 X51.6668 Y2.9156
G01 Z-1.9000
G01 Z0
G00 Z0.7870
M05
G00 Z0.50
G00 X0.0 Y0.0

M02