(G-CODE GENERATED BY FLATCAM v8.98 - www.flatcam.org - Version Date: 2019/10/16)

(Name: AstriPiCompute-PTH.drl_cnc_08)
(Type: G-code from Excellon)
(Units: MM)

(Created on Saturday, 25 January 2020 at 20:50)

(Feedrate: 3.1496 mm/min)
(Feedrate rapids 31.4961 mm/min)

(Z_Cut: -2.2 mm)
(Z_Move: 0.2 mm)
(Z Toolchange: 0.5 mm)
(X,Y Toolchange: 0.0000, 0.0000 mm)
(Z Start: None mm)
(Z End: 0.5 mm)
(Steps per circle: 128)
(Postprocessor Excellon: grbl_11)
(X range:    4.6800 ...   45.7120  mm)
(Y range:  -65.5205 ...    1.0080  mm)

(Spindle Speed: 1000.0 RPM)

M03  S10
G04 P2
G21
G90
G94
G17

G01 F3.15
G00 Z0.2000

M03 S1000.0
G00 X16.2560 Y-34.9250
G01 Z-2.2000
G01 Z0
G00 Z0.2000
G00 X21.5900 Y-32.3850
G01 Z-2.2000
G01 Z0
G00 Z0.2000
G00 X24.1300 Y-30.4800
G01 Z-2.2000
G01 Z0
G00 Z0.2000
G00 X30.4800 Y-10.1600
G01 Z-2.2000
G01 Z0
G00 Z0.2000
G00 X31.4960 Y-21.5900
G01 Z-2.2000
G01 Z0
G00 Z0.2000
G00 X31.2420 Y-27.1780
G01 Z-2.2000
G01 Z0
G00 Z0.2000
G00 X27.9400 Y-30.4800
G01 Z-2.2000
G01 Z0
G00 Z0.2000
G00 X26.6700 Y-35.8140
G01 Z-2.2000
G01 Z0
G00 Z0.2000
G00 X25.9080 Y-40.6400
G01 Z-2.2000
G01 Z0
G00 Z0.2000
G00 X30.4800 Y-45.7200
G01 Z-2.2000
G01 Z0
G00 Z0.2000
G00 X39.3700 Y-49.5300
G01 Z-2.2000
G01 Z0
G00 Z0.2000
G00 X33.6550 Y-52.0700
G01 Z-2.2000
G01 Z0
G00 Z0.2000
G00 X31.7500 Y-58.4200
G01 Z-2.2000
G01 Z0
G00 Z0.2000
G00 X28.4480 Y-53.3400
G01 Z-2.2000
G01 Z0
G00 Z0.2000
G00 X26.0350 Y-57.1500
G01 Z-2.2000
G01 Z0
G00 Z0.2000
G00 X19.3040 Y-57.4040
G01 Z-2.2000
G01 Z0
G00 Z0.2000
G00 X20.8280 Y-51.8160
G01 Z-2.2000
G01 Z0
G00 Z0.2000
G00 X20.8280 Y-46.2280
G01 Z-2.2000
G01 Z0
G00 Z0.2000
G00 X22.8600 Y-44.7040
G01 Z-2.2000
G01 Z0
G00 Z0.2000
M03 S1000.0
G00 X5.0800 Y-19.0500
G01 Z-2.2000
G01 Z0
G00 Z0.2000
G00 X5.0800 Y-22.8600
G01 Z-2.2000
G01 Z0
G00 Z0.2000
G00 X29.2100 Y-5.0800
G01 Z-2.2000
G01 Z0
G00 Z0.2000
G00 X25.4000 Y-5.0800
G01 Z-2.2000
G01 Z0
G00 Z0.2000
G00 X17.7800 Y-5.0800
G01 Z-2.2000
G01 Z0
G00 Z0.2000
G00 X13.9700 Y-5.0800
G01 Z-2.2000
G01 Z0
G00 Z0.2000
G00 X5.0800 Y-5.0800
G01 Z-2.2000
G01 Z0
G00 Z0.2000
G00 X5.0800 Y-8.8900
G01 Z-2.2000
G01 Z0
G00 Z0.2000
M05
G00 Z0.50
G00 X0.0 Y0.0

M02