(G-CODE GENERATED BY FLATCAM v8.98 - www.flatcam.org - Version Date: 2019/10/16)

(Name: AstriPiCompute-PTH.drl_cnc_10_bottom)
(Type: G-code from Excellon)
(Units: MM)

(Created on Monday, 03 February 2020 at 18:25)

(Feedrate: 3.1496 mm/min)
(Feedrate rapids 31.4961 mm/min)

(Z_Cut: -2.1 mm)
(Z_Move: 0.3 mm)
(Z Toolchange: 0.5 mm)
(X,Y Toolchange: 0.0000, 0.0000 mm)
(Z Start: None mm)
(Z End: 0.5 mm)
(Steps per circle: 128)
(Postprocessor Excellon: grbl_11)
(X range:    0.9074 ...   65.3579  mm)
(Y range:  -41.9684 ...   -3.0954  mm)

(Spindle Speed: 1000.0 RPM)

M03  S10
G04 P2
G21
G90
G94
G17

G01 F3.15
G00 Z0.3000

M03 S1000.0
G00 X63.5914 Y-3.5954
G01 Z-2.1000
G01 Z0
G00 Z0.3000
G00 X61.0514 Y-3.5954
G01 Z-2.1000
G01 Z0
G00 Z0.3000
G00 X58.5114 Y-3.5954
G01 Z-2.1000
G01 Z0
G00 Z0.3000
G00 X55.9714 Y-3.5954
G01 Z-2.1000
G01 Z0
G00 Z0.3000
G00 X53.4314 Y-3.5954
G01 Z-2.1000
G01 Z0
G00 Z0.3000
G00 X50.8914 Y-3.5954
G01 Z-2.1000
G01 Z0
G00 Z0.3000
G00 X48.3514 Y-3.5954
G01 Z-2.1000
G01 Z0
G00 Z0.3000
G00 X45.8114 Y-3.5954
G01 Z-2.1000
G01 Z0
G00 Z0.3000
G00 X43.2714 Y-3.5954
G01 Z-2.1000
G01 Z0
G00 Z0.3000
G00 X40.7314 Y-3.5954
G01 Z-2.1000
G01 Z0
G00 Z0.3000
G00 X38.1914 Y-3.5954
G01 Z-2.1000
G01 Z0
G00 Z0.3000
G00 X35.6514 Y-3.5954
G01 Z-2.1000
G01 Z0
G00 Z0.3000
G00 X33.1114 Y-3.5954
G01 Z-2.1000
G01 Z0
G00 Z0.3000
G00 X30.5714 Y-3.5954
G01 Z-2.1000
G01 Z0
G00 Z0.3000
G00 X28.0314 Y-3.5954
G01 Z-2.1000
G01 Z0
G00 Z0.3000
G00 X25.4914 Y-3.5954
G01 Z-2.1000
G01 Z0
G00 Z0.3000
G00 X22.9514 Y-3.5954
G01 Z-2.1000
G01 Z0
G00 Z0.3000
G00 X20.4114 Y-3.5954
G01 Z-2.1000
G01 Z0
G00 Z0.3000
G00 X17.8714 Y-3.5954
G01 Z-2.1000
G01 Z0
G00 Z0.3000
G00 X15.3314 Y-3.5954
G01 Z-2.1000
G01 Z0
G00 Z0.3000
G00 X15.3314 Y-6.1354
G01 Z-2.1000
G01 Z0
G00 Z0.3000
G00 X17.8714 Y-6.1354
G01 Z-2.1000
G01 Z0
G00 Z0.3000
G00 X20.4114 Y-6.1354
G01 Z-2.1000
G01 Z0
G00 Z0.3000
G00 X22.9514 Y-6.1354
G01 Z-2.1000
G01 Z0
G00 Z0.3000
G00 X25.4914 Y-6.1354
G01 Z-2.1000
G01 Z0
G00 Z0.3000
G00 X28.0314 Y-6.1354
G01 Z-2.1000
G01 Z0
G00 Z0.3000
G00 X30.5714 Y-6.1354
G01 Z-2.1000
G01 Z0
G00 Z0.3000
G00 X33.1114 Y-6.1354
G01 Z-2.1000
G01 Z0
G00 Z0.3000
G00 X35.6514 Y-6.1354
G01 Z-2.1000
G01 Z0
G00 Z0.3000
G00 X38.1914 Y-6.1354
G01 Z-2.1000
G01 Z0
G00 Z0.3000
G00 X40.7314 Y-6.1354
G01 Z-2.1000
G01 Z0
G00 Z0.3000
G00 X43.2714 Y-6.1354
G01 Z-2.1000
G01 Z0
G00 Z0.3000
G00 X45.8114 Y-6.1354
G01 Z-2.1000
G01 Z0
G00 Z0.3000
G00 X48.3514 Y-6.1354
G01 Z-2.1000
G01 Z0
G00 Z0.3000
G00 X50.8914 Y-6.1354
G01 Z-2.1000
G01 Z0
G00 Z0.3000
G00 X53.4314 Y-6.1354
G01 Z-2.1000
G01 Z0
G00 Z0.3000
G00 X55.9714 Y-6.1354
G01 Z-2.1000
G01 Z0
G00 Z0.3000
G00 X58.5114 Y-6.1354
G01 Z-2.1000
G01 Z0
G00 Z0.3000
G00 X61.0514 Y-6.1354
G01 Z-2.1000
G01 Z0
G00 Z0.3000
G00 X63.5914 Y-6.1354
G01 Z-2.1000
G01 Z0
G00 Z0.3000
M03 S1000.0
G00 X9.2354 Y-30.0114
G01 Z-2.1000
G01 Z0
G00 Z0.3000
G00 X6.6954 Y-30.0114
G01 Z-2.1000
G01 Z0
G00 Z0.3000
G00 X4.1554 Y-30.0114
G01 Z-2.1000
G01 Z0
G00 Z0.3000
G00 X4.1554 Y-16.2954
G01 Z-2.1000
G01 Z0
G00 Z0.3000
G00 X6.6954 Y-16.2954
G01 Z-2.1000
G01 Z0
G00 Z0.3000
G00 X9.2354 Y-16.2954
G01 Z-2.1000
G01 Z0
G00 Z0.3000
M05
G00 Z0.50
G00 X0.0 Y0.0

M02