(G-CODE GENERATED BY FLATCAM v8.98 - www.flatcam.org - Version Date: 2019/10/16)

(Name: AstriPiCompute-B_Cu)
(Type: G-code from Geometry)
(Units: MM)

(Created on Friday, 24 January 2020 at 21:53)

(TOOL DIAMETER: 0.22 mm)

(Feedrate: 60.0 mm/min)
(Feedrate_Z: 10.0 mm/min)
(Feedrate rapids 3.1496 mm/min)

(Z_Cut: -0.22 mm)
(Z_Move: 0.2 mm)
(Z Toolchange: 0.5 mm)
(X,Y Toolchange: 0.0000, 0.0000 mm)
(Z Start: None mm)
(Z End: 0.5 mm)
(Steps per circle: 128)
(Postprocessor Geometry: grbl_11)

(X range:    2.0063 ...   49.0286  mm)
(Y range:  -70.4916 ...    2.6917  mm)

(Spindle Speed: 1000 RPM)

M03  S10
G04 P2
G21
G90
G94
G17

G01 F60.00
G00 Z0.2000

M03 S1000
G00 X4.6056 Y0.4630
G01 F10.00
G01 Z-0.2200
G01 F60.00
G01 X4.6059 Y0.4565 F60.00
G01 X4.6090 Y0.4149 F60.00
G01 X4.6096 Y0.4083 F60.00
G01 X4.6147 Y0.3669 F60.00
G01 X4.6147 Y0.3669 F60.00
G01 X4.6157 Y0.3605 F60.00
G01 X4.6228 Y0.3193 F60.00
G01 X4.6234 Y0.3160 F60.00
G01 X4.6241 Y0.3129 F60.00
G01 X4.6332 Y0.2722 F60.00
G01 X4.6348 Y0.2659 F60.00
G01 X4.6459 Y0.2257 F60.00
G01 X4.6460 Y0.2257 F60.00
G01 X4.6478 Y0.2194 F60.00
G01 X4.6609 Y0.1798 F60.00
G01 X4.6631 Y0.1736 F60.00
G01 X4.6788 Y0.1331 F60.00
G01 X4.6807 Y0.1286 F60.00
G01 X4.6976 Y0.0905 F60.00
G01 X4.7002 Y0.0849 F60.00
G01 X4.7191 Y0.0473 F60.00
G01 X4.7222 Y0.0415 F60.00
G01 X4.7428 Y0.0052 F60.00
G01 X4.7461 Y-0.0004 F60.00
G01 X4.7685 Y-0.0357 F60.00
G01 X4.7685 Y-0.0356 F60.00
G01 X4.7721 Y-0.0411 F60.00
G01 X4.7961 Y-0.0752 F60.00
G01 X4.7985 Y-0.0784 F60.00
G01 X4.8000 Y-0.0805 F60.00
G01 X4.8257 Y-0.1134 F60.00
G01 X4.8299 Y-0.1184 F60.00
G01 X4.8571 Y-0.1500 F60.00
G01 X4.8615 Y-0.1549 F60.00
G01 X4.8903 Y-0.1851 F60.00
G01 X4.8926 Y-0.1874 F60.00
G01 X4.8949 Y-0.1897 F60.00
G01 X4.9251 Y-0.2185 F60.00
G01 X4.9252 Y-0.2185 F60.00
G01 X4.9300 Y-0.2229 F60.00
G01 X4.9616 Y-0.2501 F60.00
G01 X4.9616 Y-0.2501 F60.00
G01 X4.9622 Y-0.2507 F60.00
G01 X4.9666 Y-0.2543 F60.00
G01 X4.9995 Y-0.2800 F60.00
G01 X5.0016 Y-0.2815 F60.00
G01 X5.0048 Y-0.2839 F60.00
G01 X5.0389 Y-0.3079 F60.00
G01 X5.0443 Y-0.3115 F60.00
G01 X5.0796 Y-0.3339 F60.00
G01 X5.0796 Y-0.3338 F60.00
G01 X5.0801 Y-0.3342 F60.00
G01 X5.0852 Y-0.3372 F60.00
G01 X5.1215 Y-0.3578 F60.00
G01 X5.1273 Y-0.3609 F60.00
G01 X5.1649 Y-0.3798 F60.00
G01 X5.1705 Y-0.3824 F60.00
G01 X5.2086 Y-0.3993 F60.00
G01 X5.2131 Y-0.4012 F60.00
G01 X5.2536 Y-0.4169 F60.00
G01 X5.2536 Y-0.4168 F60.00
G01 X5.2598 Y-0.4191 F60.00
G01 X5.2994 Y-0.4322 F60.00
G01 X5.3057 Y-0.4341 F60.00
G01 X5.3459 Y-0.4452 F60.00
G01 X5.3459 Y-0.4452 F60.00
G01 X5.3522 Y-0.4468 F60.00
G01 X5.3929 Y-0.4559 F60.00
G01 X5.3960 Y-0.4566 F60.00
G01 X5.3993 Y-0.4572 F60.00
G01 X5.4405 Y-0.4643 F60.00
G01 X5.4469 Y-0.4653 F60.00
G01 X5.4883 Y-0.4704 F60.00
G01 X5.4883 Y-0.4704 F60.00
G01 X5.4891 Y-0.4705 F60.00
G01 X5.4949 Y-0.4710 F60.00
G01 X5.5365 Y-0.4741 F60.00
G01 X5.5430 Y-0.4744 F60.00
G01 X5.5847 Y-0.4755 F60.00
G01 X5.5880 Y-0.4755 F60.00
G01 X5.5913 Y-0.4755 F60.00
G01 X5.6330 Y-0.4744 F60.00
G01 X5.6330 Y-0.4744 F60.00
G01 X5.6395 Y-0.4741 F60.00
G01 X5.6811 Y-0.4710 F60.00
G01 X5.6877 Y-0.4704 F60.00
G01 X5.7291 Y-0.4653 F60.00
G01 X5.7291 Y-0.4653 F60.00
G01 X5.7355 Y-0.4643 F60.00
G01 X5.7767 Y-0.4572 F60.00
G01 X5.7800 Y-0.4566 F60.00
G01 X5.7831 Y-0.4559 F60.00
G01 X5.8238 Y-0.4468 F60.00
G01 X5.8301 Y-0.4452 F60.00
G01 X5.8703 Y-0.4341 F60.00
G01 X5.8703 Y-0.4340 F60.00
G01 X5.8766 Y-0.4322 F60.00
G01 X5.9162 Y-0.4191 F60.00
G01 X5.9224 Y-0.4169 F60.00
G01 X5.9629 Y-0.4012 F60.00
G01 X5.9674 Y-0.3993 F60.00
G01 X6.0055 Y-0.3824 F60.00
G01 X6.0111 Y-0.3798 F60.00
G01 X6.0487 Y-0.3609 F60.00
G01 X6.0545 Y-0.3578 F60.00
G01 X6.0908 Y-0.3372 F60.00
G01 X6.0964 Y-0.3339 F60.00
G01 X6.1317 Y-0.3115 F60.00
G01 X6.1316 Y-0.3115 F60.00
G01 X6.1371 Y-0.3079 F60.00
G01 X6.1712 Y-0.2839 F60.00
G01 X6.1744 Y-0.2815 F60.00
G01 X6.1765 Y-0.2800 F60.00
G01 X6.2094 Y-0.2543 F60.00
G01 X6.2144 Y-0.2501 F60.00
G01 X6.2460 Y-0.2229 F60.00
G01 X6.2509 Y-0.2185 F60.00
G01 X6.2811 Y-0.1897 F60.00
G01 X6.2834 Y-0.1874 F60.00
G01 X6.2857 Y-0.1851 F60.00
G01 X6.3145 Y-0.1549 F60.00
G01 X6.3145 Y-0.1548 F60.00
G01 X6.3189 Y-0.1500 F60.00
G01 X6.3461 Y-0.1184 F60.00
G01 X6.3461 Y-0.1184 F60.00
G01 X6.3467 Y-0.1178 F60.00
G01 X6.3503 Y-0.1134 F60.00
G01 X6.3760 Y-0.0805 F60.00
G01 X6.3775 Y-0.0784 F60.00
G01 X6.3799 Y-0.0752 F60.00
G01 X6.4039 Y-0.0411 F60.00
G01 X6.4075 Y-0.0357 F60.00
G01 X6.4299 Y-0.0004 F60.00
G01 X6.4298 Y-0.0004 F60.00
G01 X6.4302 Y0.0001 F60.00
G01 X6.4332 Y0.0052 F60.00
G01 X6.4538 Y0.0415 F60.00
G01 X6.4569 Y0.0473 F60.00
G01 X6.4758 Y0.0849 F60.00
G01 X6.4784 Y0.0905 F60.00
G01 X6.4953 Y0.1286 F60.00
G01 X6.4972 Y0.1331 F60.00
G01 X6.5129 Y0.1736 F60.00
G01 X6.5128 Y0.1736 F60.00
G01 X6.5151 Y0.1798 F60.00
G01 X6.5282 Y0.2194 F60.00
G01 X6.5301 Y0.2257 F60.00
G01 X6.5412 Y0.2659 F60.00
G01 X6.5412 Y0.2659 F60.00
G01 X6.5428 Y0.2722 F60.00
G01 X6.5519 Y0.3129 F60.00
G01 X6.5526 Y0.3160 F60.00
G01 X6.5532 Y0.3193 F60.00
G01 X6.5603 Y0.3605 F60.00
G01 X6.5613 Y0.3669 F60.00
G01 X6.5664 Y0.4083 F60.00
G01 X6.5664 Y0.4083 F60.00
G01 X6.5665 Y0.4091 F60.00
G01 X6.5670 Y0.4149 F60.00
G01 X6.5701 Y0.4565 F60.00
G01 X6.5704 Y0.4630 F60.00
G01 X6.5715 Y0.5047 F60.00
G01 X6.5715 Y0.5080 F60.00
G01 X6.5715 Y0.5113 F60.00
G01 X6.5704 Y0.5530 F60.00
G01 X6.5704 Y0.5530 F60.00
G01 X6.5701 Y0.5595 F60.00
G01 X6.5670 Y0.6011 F60.00
G01 X6.5664 Y0.6077 F60.00
G01 X6.5613 Y0.6491 F60.00
G01 X6.5613 Y0.6491 F60.00
G01 X6.5603 Y0.6555 F60.00
G01 X6.5532 Y0.6967 F60.00
G01 X6.5526 Y0.7000 F60.00
G01 X6.5519 Y0.7031 F60.00
G01 X6.5428 Y0.7438 F60.00
G01 X6.5412 Y0.7501 F60.00
G01 X6.5301 Y0.7903 F60.00
G01 X6.5300 Y0.7903 F60.00
G01 X6.5282 Y0.7966 F60.00
G01 X6.5151 Y0.8362 F60.00
G01 X6.5129 Y0.8424 F60.00
G01 X6.4972 Y0.8829 F60.00
G01 X6.4953 Y0.8874 F60.00
G01 X6.4784 Y0.9255 F60.00
G01 X6.4758 Y0.9311 F60.00
G01 X6.4569 Y0.9687 F60.00
G01 X6.4538 Y0.9745 F60.00
G01 X6.4332 Y1.0108 F60.00
G01 X6.4299 Y1.0164 F60.00
G01 X6.4075 Y1.0517 F60.00
G01 X6.4075 Y1.0516 F60.00
G01 X6.4039 Y1.0571 F60.00
G01 X6.3799 Y1.0912 F60.00
G01 X6.3775 Y1.0944 F60.00
G01 X6.3760 Y1.0965 F60.00
G01 X6.3503 Y1.1294 F60.00
G01 X6.3461 Y1.1344 F60.00
G01 X6.3189 Y1.1660 F60.00
G01 X6.3145 Y1.1709 F60.00
G01 X6.2857 Y1.2011 F60.00
G01 X6.2834 Y1.2034 F60.00
G01 X6.2811 Y1.2057 F60.00
G01 X6.2509 Y1.2345 F60.00
G01 X6.2508 Y1.2345 F60.00
G01 X6.2460 Y1.2389 F60.00
G01 X6.2144 Y1.2661 F60.00
G01 X6.2144 Y1.2661 F60.00
G01 X6.2138 Y1.2667 F60.00
G01 X6.2094 Y1.2703 F60.00
G01 X6.1765 Y1.2960 F60.00
G01 X6.1744 Y1.2975 F60.00
G01 X6.1712 Y1.2999 F60.00
G01 X6.1371 Y1.3239 F60.00
G01 X6.1317 Y1.3275 F60.00
G01 X6.0964 Y1.3499 F60.00
G01 X6.0964 Y1.3498 F60.00
G01 X6.0959 Y1.3502 F60.00
G01 X6.0908 Y1.3532 F60.00
G01 X6.0545 Y1.3738 F60.00
G01 X6.0487 Y1.3769 F60.00
G01 X6.0111 Y1.3958 F60.00
G01 X6.0055 Y1.3984 F60.00
G01 X5.9674 Y1.4153 F60.00
G01 X5.9629 Y1.4172 F60.00
G01 X5.9224 Y1.4329 F60.00
G01 X5.9224 Y1.4328 F60.00
G01 X5.9162 Y1.4351 F60.00
G01 X5.8766 Y1.4482 F60.00
G01 X5.8703 Y1.4501 F60.00
G01 X5.8301 Y1.4612 F60.00
G01 X5.8301 Y1.4612 F60.00
G01 X5.8238 Y1.4628 F60.00
G01 X5.7831 Y1.4719 F60.00
G01 X5.7800 Y1.4726 F60.00
G01 X5.7767 Y1.4732 F60.00
G01 X5.7355 Y1.4803 F60.00
G01 X5.7291 Y1.4813 F60.00
G01 X5.6877 Y1.4864 F60.00
G01 X5.6877 Y1.4864 F60.00
G01 X5.6869 Y1.4865 F60.00
G01 X5.6811 Y1.4870 F60.00
G01 X5.6395 Y1.4901 F60.00
G01 X5.6330 Y1.4904 F60.00
G01 X5.5913 Y1.4915 F60.00
G01 X5.5880 Y1.4915 F60.00
G01 X5.5847 Y1.4915 F60.00
G01 X5.5430 Y1.4904 F60.00
G01 X5.5430 Y1.4904 F60.00
G01 X5.5365 Y1.4901 F60.00
G01 X5.4949 Y1.4870 F60.00
G01 X5.4883 Y1.4864 F60.00
G01 X5.4469 Y1.4813 F60.00
G01 X5.4469 Y1.4813 F60.00
G01 X5.4405 Y1.4803 F60.00
G01 X5.3993 Y1.4732 F60.00
G01 X5.3960 Y1.4726 F60.00
G01 X5.3929 Y1.4719 F60.00
G01 X5.3522 Y1.4628 F60.00
G01 X5.3459 Y1.4612 F60.00
G01 X5.3057 Y1.4501 F60.00
G01 X5.3057 Y1.4500 F60.00
G01 X5.2994 Y1.4482 F60.00
G01 X5.2598 Y1.4351 F60.00
G01 X5.2536 Y1.4329 F60.00
G01 X5.2131 Y1.4172 F60.00
G01 X5.2086 Y1.4153 F60.00
G01 X5.1705 Y1.3984 F60.00
G01 X5.1649 Y1.3958 F60.00
G01 X5.1273 Y1.3769 F60.00
G01 X5.1215 Y1.3738 F60.00
G01 X5.0852 Y1.3532 F60.00
G01 X5.0796 Y1.3499 F60.00
G01 X5.0443 Y1.3275 F60.00
G01 X5.0444 Y1.3275 F60.00
G01 X5.0389 Y1.3239 F60.00
G01 X5.0048 Y1.2999 F60.00
G01 X5.0016 Y1.2975 F60.00
G01 X4.9995 Y1.2960 F60.00
G01 X4.9666 Y1.2703 F60.00
G01 X4.9616 Y1.2661 F60.00
G01 X4.9300 Y1.2389 F60.00
G01 X4.9251 Y1.2345 F60.00
G01 X4.8949 Y1.2057 F60.00
G01 X4.8926 Y1.2034 F60.00
G01 X4.8903 Y1.2011 F60.00
G01 X4.8615 Y1.1709 F60.00
G01 X4.8615 Y1.1708 F60.00
G01 X4.8571 Y1.1660 F60.00
G01 X4.8299 Y1.1344 F60.00
G01 X4.8299 Y1.1344 F60.00
G01 X4.8293 Y1.1338 F60.00
G01 X4.8257 Y1.1294 F60.00
G01 X4.8000 Y1.0965 F60.00
G01 X4.7985 Y1.0944 F60.00
G01 X4.7961 Y1.0912 F60.00
G01 X4.7721 Y1.0571 F60.00
G01 X4.7685 Y1.0517 F60.00
G01 X4.7461 Y1.0164 F60.00
G01 X4.7462 Y1.0164 F60.00
G01 X4.7458 Y1.0159 F60.00
G01 X4.7428 Y1.0108 F60.00
G01 X4.7222 Y0.9745 F60.00
G01 X4.7191 Y0.9687 F60.00
G01 X4.7002 Y0.9311 F60.00
G01 X4.6976 Y0.9255 F60.00
G01 X4.6807 Y0.8874 F60.00
G01 X4.6788 Y0.8829 F60.00
G01 X4.6631 Y0.8424 F60.00
G01 X4.6632 Y0.8424 F60.00
G01 X4.6609 Y0.8362 F60.00
G01 X4.6478 Y0.7966 F60.00
G01 X4.6459 Y0.7903 F60.00
G01 X4.6348 Y0.7501 F60.00
G01 X4.6348 Y0.7501 F60.00
G01 X4.6332 Y0.7438 F60.00
G01 X4.6241 Y0.7031 F60.00
G01 X4.6234 Y0.7000 F60.00
G01 X4.6228 Y0.6967 F60.00
G01 X4.6157 Y0.6555 F60.00
G01 X4.6147 Y0.6491 F60.00
G01 X4.6096 Y0.6077 F60.00
G01 X4.6096 Y0.6077 F60.00
G01 X4.6095 Y0.6069 F60.00
G01 X4.6090 Y0.6011 F60.00
G01 X4.6059 Y0.5595 F60.00
G01 X4.6056 Y0.5530 F60.00
G01 X4.6045 Y0.5113 F60.00
G01 X4.6045 Y0.5080 F60.00
G01 X4.6045 Y0.5047 F60.00
G01 X4.6056 Y0.4630 F60.00
G01 X4.6056 Y0.4630 F60.00
G00 Z0.2000
G00 X4.6279 Y0.4636
G01 F10.00
G01 Z-0.2200
G01 F60.00
G01 X4.6281 Y0.4581 F60.00
G01 X4.6311 Y0.4165 F60.00
G01 X4.6317 Y0.4111 F60.00
G01 X4.6368 Y0.3697 F60.00
G01 X4.6368 Y0.3697 F60.00
G01 X4.6376 Y0.3643 F60.00
G01 X4.6447 Y0.3232 F60.00
G01 X4.6452 Y0.3204 F60.00
G01 X4.6458 Y0.3178 F60.00
G01 X4.6549 Y0.2771 F60.00
G01 X4.6563 Y0.2718 F60.00
G01 X4.6674 Y0.2316 F60.00
G01 X4.6674 Y0.2316 F60.00
G01 X4.6690 Y0.2264 F60.00
G01 X4.6821 Y0.1867 F60.00
G01 X4.6839 Y0.1816 F60.00
G01 X4.6994 Y0.1414 F60.00
G01 X4.7010 Y0.1376 F60.00
G01 X4.7179 Y0.0995 F60.00
G01 X4.7201 Y0.0948 F60.00
G01 X4.7390 Y0.0573 F60.00
G01 X4.7416 Y0.0525 F60.00
G01 X4.7621 Y0.0162 F60.00
G01 X4.7649 Y0.0115 F60.00
G01 X4.7873 Y-0.0238 F60.00
G01 X4.7873 Y-0.0237 F60.00
G01 X4.7903 Y-0.0283 F60.00
G01 X4.8143 Y-0.0624 F60.00
G01 X4.8163 Y-0.0651 F60.00
G01 X4.8176 Y-0.0668 F60.00
G01 X4.8432 Y-0.0997 F60.00
G01 X4.8467 Y-0.1039 F60.00
G01 X4.8740 Y-0.1355 F60.00
G01 X4.8776 Y-0.1395 F60.00
G01 X4.9064 Y-0.1698 F60.00
G01 X4.9083 Y-0.1717 F60.00
G01 X4.9102 Y-0.1736 F60.00
G01 X4.9405 Y-0.2024 F60.00
G01 X4.9405 Y-0.2023 F60.00
G01 X4.9445 Y-0.2060 F60.00
G01 X4.9761 Y-0.2333 F60.00
G01 X4.9761 Y-0.2333 F60.00
G01 X4.9766 Y-0.2337 F60.00
G01 X4.9803 Y-0.2368 F60.00
G01 X5.0132 Y-0.2624 F60.00
G01 X5.0149 Y-0.2637 F60.00
G01 X5.0176 Y-0.2657 F60.00
G01 X5.0517 Y-0.2897 F60.00
G01 X5.0562 Y-0.2927 F60.00
G01 X5.0919 Y-0.3153 F60.00
G01 X5.0962 Y-0.3179 F60.00
G01 X5.1325 Y-0.3384 F60.00
G01 X5.1373 Y-0.3410 F60.00
G01 X5.1748 Y-0.3599 F60.00
G01 X5.1795 Y-0.3621 F60.00
G01 X5.2176 Y-0.3790 F60.00
G01 X5.2214 Y-0.3806 F60.00
G01 X5.2616 Y-0.3961 F60.00
G01 X5.2616 Y-0.3961 F60.00
G01 X5.2667 Y-0.3979 F60.00
G01 X5.3064 Y-0.4110 F60.00
G01 X5.3116 Y-0.4126 F60.00
G01 X5.3518 Y-0.4237 F60.00
G01 X5.3571 Y-0.4251 F60.00
G01 X5.3978 Y-0.4342 F60.00
G01 X5.4004 Y-0.4348 F60.00
G01 X5.4032 Y-0.4353 F60.00
G01 X5.4443 Y-0.4424 F60.00
G01 X5.4497 Y-0.4432 F60.00
G01 X5.4911 Y-0.4483 F60.00
G01 X5.4911 Y-0.4483 F60.00
G01 X5.4917 Y-0.4484 F60.00
G01 X5.4965 Y-0.4489 F60.00
G01 X5.5381 Y-0.4519 F60.00
G01 X5.5436 Y-0.4522 F60.00
G01 X5.5853 Y-0.4532 F60.00
G01 X5.5880 Y-0.4533 F60.00
G01 X5.5907 Y-0.4532 F60.00
G01 X5.6324 Y-0.4522 F60.00
G01 X5.6324 Y-0.4521 F60.00
G01 X5.6379 Y-0.4519 F60.00
G01 X5.6795 Y-0.4489 F60.00
G01 X5.6849 Y-0.4483 F60.00
G01 X5.7263 Y-0.4432 F60.00
G01 X5.7263 Y-0.4432 F60.00
G01 X5.7317 Y-0.4424 F60.00
G01 X5.7728 Y-0.4353 F60.00
G01 X5.7756 Y-0.4348 F60.00
G01 X5.7782 Y-0.4342 F60.00
G01 X5.8189 Y-0.4251 F60.00
G01 X5.8242 Y-0.4237 F60.00
G01 X5.8644 Y-0.4126 F60.00
G01 X5.8644 Y-0.4126 F60.00
G01 X5.8696 Y-0.4110 F60.00
G01 X5.9093 Y-0.3979 F60.00
G01 X5.9144 Y-0.3961 F60.00
G01 X5.9546 Y-0.3806 F60.00
G01 X5.9584 Y-0.3790 F60.00
G01 X5.9965 Y-0.3621 F60.00
G01 X6.0012 Y-0.3599 F60.00
G01 X6.0387 Y-0.3410 F60.00
G01 X6.0435 Y-0.3384 F60.00
G01 X6.0798 Y-0.3179 F60.00
G01 X6.0845 Y-0.3151 F60.00
G01 X6.1198 Y-0.2927 F60.00
G01 X6.1197 Y-0.2927 F60.00
G01 X6.1243 Y-0.2897 F60.00
G01 X6.1584 Y-0.2657 F60.00
G01 X6.1611 Y-0.2637 F60.00
G01 X6.1628 Y-0.2624 F60.00
G01 X6.1957 Y-0.2368 F60.00
G01 X6.1999 Y-0.2333 F60.00
G01 X6.2315 Y-0.2060 F60.00
G01 X6.2355 Y-0.2024 F60.00
G01 X6.2658 Y-0.1736 F60.00
G01 X6.2677 Y-0.1717 F60.00
G01 X6.2696 Y-0.1698 F60.00
G01 X6.2984 Y-0.1395 F60.00
G01 X6.2983 Y-0.1395 F60.00
G01 X6.3020 Y-0.1355 F60.00
G01 X6.3293 Y-0.1039 F60.00
G01 X6.3293 Y-0.1039 F60.00
G01 X6.3297 Y-0.1034 F60.00
G01 X6.3328 Y-0.0997 F60.00
G01 X6.3584 Y-0.0668 F60.00
G01 X6.3597 Y-0.0651 F60.00
G01 X6.3617 Y-0.0624 F60.00
G01 X6.3857 Y-0.0283 F60.00
G01 X6.3887 Y-0.0238 F60.00
G01 X6.4113 Y0.0119 F60.00
G01 X6.4139 Y0.0162 F60.00
G01 X6.4344 Y0.0525 F60.00
G01 X6.4370 Y0.0573 F60.00
G01 X6.4559 Y0.0948 F60.00
G01 X6.4581 Y0.0995 F60.00
G01 X6.4750 Y0.1376 F60.00
G01 X6.4766 Y0.1414 F60.00
G01 X6.4921 Y0.1816 F60.00
G01 X6.4921 Y0.1816 F60.00
G01 X6.4939 Y0.1867 F60.00
G01 X6.5070 Y0.2264 F60.00
G01 X6.5086 Y0.2316 F60.00
G01 X6.5197 Y0.2718 F60.00
G01 X6.5211 Y0.2771 F60.00
G01 X6.5302 Y0.3178 F60.00
G01 X6.5308 Y0.3204 F60.00
G01 X6.5313 Y0.3232 F60.00
G01 X6.5384 Y0.3643 F60.00
G01 X6.5392 Y0.3697 F60.00
G01 X6.5443 Y0.4111 F60.00
G01 X6.5443 Y0.4111 F60.00
G01 X6.5444 Y0.4117 F60.00
G01 X6.5449 Y0.4165 F60.00
G01 X6.5479 Y0.4581 F60.00
G01 X6.5482 Y0.4636 F60.00
G01 X6.5492 Y0.5053 F60.00
G01 X6.5492 Y0.5080 F60.00
G01 X6.5492 Y0.5107 F60.00
G01 X6.5482 Y0.5524 F60.00
G01 X6.5481 Y0.5524 F60.00
G01 X6.5479 Y0.5579 F60.00
G01 X6.5449 Y0.5995 F60.00
G01 X6.5443 Y0.6049 F60.00
G01 X6.5392 Y0.6463 F60.00
G01 X6.5392 Y0.6463 F60.00
G01 X6.5384 Y0.6517 F60.00
G01 X6.5313 Y0.6928 F60.00
G01 X6.5308 Y0.6956 F60.00
G01 X6.5302 Y0.6982 F60.00
G01 X6.5211 Y0.7389 F60.00
G01 X6.5197 Y0.7442 F60.00
G01 X6.5086 Y0.7844 F60.00
G01 X6.5086 Y0.7844 F60.00
G01 X6.5070 Y0.7896 F60.00
G01 X6.4939 Y0.8293 F60.00
G01 X6.4921 Y0.8344 F60.00
G01 X6.4766 Y0.8746 F60.00
G01 X6.4750 Y0.8784 F60.00
G01 X6.4581 Y0.9165 F60.00
G01 X6.4559 Y0.9212 F60.00
G01 X6.4370 Y0.9587 F60.00
G01 X6.4344 Y0.9635 F60.00
G01 X6.4139 Y0.9998 F60.00
G01 X6.4111 Y1.0045 F60.00
G01 X6.3887 Y1.0398 F60.00
G01 X6.3887 Y1.0397 F60.00
G01 X6.3857 Y1.0443 F60.00
G01 X6.3617 Y1.0784 F60.00
G01 X6.3597 Y1.0811 F60.00
G01 X6.3584 Y1.0828 F60.00
G01 X6.3328 Y1.1157 F60.00
G01 X6.3293 Y1.1199 F60.00
G01 X6.3020 Y1.1515 F60.00
G01 X6.2984 Y1.1555 F60.00
G01 X6.2696 Y1.1858 F60.00
G01 X6.2677 Y1.1877 F60.00
G01 X6.2658 Y1.1896 F60.00
G01 X6.2355 Y1.2184 F60.00
G01 X6.2355 Y1.2183 F60.00
G01 X6.2315 Y1.2220 F60.00
G01 X6.1999 Y1.2493 F60.00
G01 X6.1999 Y1.2493 F60.00
G01 X6.1994 Y1.2497 F60.00
G01 X6.1957 Y1.2528 F60.00
G01 X6.1628 Y1.2784 F60.00
G01 X6.1611 Y1.2797 F60.00
G01 X6.1584 Y1.2817 F60.00
G01 X6.1243 Y1.3057 F60.00
G01 X6.1198 Y1.3087 F60.00
G01 X6.0841 Y1.3313 F60.00
G01 X6.0798 Y1.3339 F60.00
G01 X6.0435 Y1.3544 F60.00
G01 X6.0387 Y1.3570 F60.00
G01 X6.0012 Y1.3759 F60.00
G01 X5.9965 Y1.3781 F60.00
G01 X5.9584 Y1.3950 F60.00
G01 X5.9546 Y1.3966 F60.00
G01 X5.9144 Y1.4121 F60.00
G01 X5.9144 Y1.4121 F60.00
G01 X5.9093 Y1.4139 F60.00
G01 X5.8696 Y1.4270 F60.00
G01 X5.8644 Y1.4286 F60.00
G01 X5.8242 Y1.4397 F60.00
