(G-CODE GENERATED BY FLATCAM v8.98 - www.flatcam.org - Version Date: 2019/10/16)

(Name: AstriPiCompute-PTH.drl_cnc_10_bottom)
(Type: G-code from Excellon)
(Units: MM)

(Created on Saturday, 25 January 2020 at 12:52)

(Feedrate: 3.1496 mm/min)
(Feedrate rapids 31.4961 mm/min)

(Z_Cut: -1.9 mm)
(Z_Move: 0.5 mm)
(Z Toolchange: 0.5 mm)
(X,Y Toolchange: 0.0000, 0.0000 mm)
(Z Start: None mm)
(Z End: 0.5 mm)
(Steps per circle: 128)
(Postprocessor Excellon: grbl_11)
(X range:    5.0876 ...   46.1200  mm)
(Y range:  -65.5206 ...    1.0084  mm)

(Spindle Speed: None RPM)

M03  S10
G04 P2
G21
G90
G94
G17

G01 F3.15
G00 Z0.5000

M03
G00 X8.1280 Y0.5080
G01 Z-1.9000
G01 Z0
G00 Z0.5000
G00 X5.5880 Y0.5080
G01 Z-1.9000
G01 Z0
G00 Z0.5000
G00 X5.5880 Y-2.0320
G01 Z-1.9000
G01 Z0
G00 Z0.5000
G00 X5.5880 Y-4.5720
G01 Z-1.9000
G01 Z0
G00 Z0.5000
G00 X5.5880 Y-7.1120
G01 Z-1.9000
G01 Z0
G00 Z0.5000
G00 X5.5880 Y-9.6520
G01 Z-1.9000
G01 Z0
G00 Z0.5000
G00 X5.5880 Y-12.1920
G01 Z-1.9000
G01 Z0
G00 Z0.5000
G00 X5.5880 Y-14.7320
G01 Z-1.9000
G01 Z0
G00 Z0.5000
G00 X5.5880 Y-17.2720
G01 Z-1.9000
G01 Z0
G00 Z0.5000
G00 X5.5880 Y-19.8120
G01 Z-1.9000
G01 Z0
G00 Z0.5000
G00 X5.5880 Y-22.3520
G01 Z-1.9000
G01 Z0
G00 Z0.5000
G00 X5.5880 Y-24.8920
G01 Z-1.9000
G01 Z0
G00 Z0.5000
G00 X5.5880 Y-27.4320
G01 Z-1.9000
G01 Z0
G00 Z0.5000
G00 X5.5880 Y-29.9720
G01 Z-1.9000
G01 Z0
G00 Z0.5000
G00 X5.5880 Y-32.5120
G01 Z-1.9000
G01 Z0
G00 Z0.5000
G00 X5.5880 Y-35.0520
G01 Z-1.9000
G01 Z0
G00 Z0.5000
G00 X5.5880 Y-37.5920
G01 Z-1.9000
G01 Z0
G00 Z0.5000
G00 X5.5880 Y-40.1320
G01 Z-1.9000
G01 Z0
G00 Z0.5000
G00 X5.5880 Y-42.6720
G01 Z-1.9000
G01 Z0
G00 Z0.5000
G00 X5.5880 Y-45.2120
G01 Z-1.9000
G01 Z0
G00 Z0.5000
G00 X5.5880 Y-47.7520
G01 Z-1.9000
G01 Z0
G00 Z0.5000
G00 X8.1280 Y-47.7520
G01 Z-1.9000
G01 Z0
G00 Z0.5000
G00 X8.1280 Y-45.2120
G01 Z-1.9000
G01 Z0
G00 Z0.5000
G00 X8.1280 Y-42.6720
G01 Z-1.9000
G01 Z0
G00 Z0.5000
G00 X8.1280 Y-40.1320
G01 Z-1.9000
G01 Z0
G00 Z0.5000
G00 X8.1280 Y-37.5920
G01 Z-1.9000
G01 Z0
G00 Z0.5000
G00 X8.1280 Y-35.0520
G01 Z-1.9000
G01 Z0
G00 Z0.5000
G00 X8.1280 Y-32.5120
G01 Z-1.9000
G01 Z0
G00 Z0.5000
G00 X8.1280 Y-29.9720
G01 Z-1.9000
G01 Z0
G00 Z0.5000
G00 X8.1280 Y-27.4320
G01 Z-1.9000
G01 Z0
G00 Z0.5000
G00 X8.1280 Y-24.8920
G01 Z-1.9000
G01 Z0
G00 Z0.5000
G00 X8.1280 Y-22.3520
G01 Z-1.9000
G01 Z0
G00 Z0.5000
G00 X8.1280 Y-19.8120
G01 Z-1.9000
G01 Z0
G00 Z0.5000
G00 X8.1280 Y-17.2720
G01 Z-1.9000
G01 Z0
G00 Z0.5000
G00 X8.1280 Y-14.7320
G01 Z-1.9000
G01 Z0
G00 Z0.5000
G00 X8.1280 Y-12.1920
G01 Z-1.9000
G01 Z0
G00 Z0.5000
G00 X8.1280 Y-9.6520
G01 Z-1.9000
G01 Z0
G00 Z0.5000
G00 X8.1280 Y-7.1120
G01 Z-1.9000
G01 Z0
G00 Z0.5000
G00 X8.1280 Y-4.5720
G01 Z-1.9000
G01 Z0
G00 Z0.5000
G00 X8.1280 Y-2.0320
G01 Z-1.9000
G01 Z0
G00 Z0.5000
M03
G00 X36.8300 Y-44.4500
G01 Z-1.9000
G01 Z0
G00 Z0.5000
G00 X36.8300 Y-46.9900
G01 Z-1.9000
G01 Z0
G00 Z0.5000
G00 X36.8300 Y-49.5300
G01 Z-1.9000
G01 Z0
G00 Z0.5000
G00 X36.8300 Y-55.8800
G01 Z-1.9000
G01 Z0
G00 Z0.5000
G00 X36.8300 Y-58.4200
G01 Z-1.9000
G01 Z0
G00 Z0.5000
G00 X36.8300 Y-60.9600
G01 Z-1.9000
G01 Z0
G00 Z0.5000
M05
G00 Z0.50
G00 X0.0 Y0.0

M02