(G-CODE GENERATED BY FLATCAM v8.98 - www.flatcam.org - Version Date: 2019/10/16)

(Name: AstriPiCompute-B_Cu.gbr_iso_cnc)
(Type: G-code from Geometry)
(Units: MM)

(Created on Monday, 03 February 2020 at 18:23)

(TOOL DIAMETER: 0.16 mm)

(Feedrate: 90.0 mm/min)
(Feedrate_Z: 10.0 mm/min)
(Feedrate rapids 3.1496 mm/min)

(Z_Cut: -0.11 mm)
(DepthPerCut: 0.051 mm <=>3 passes)
(Z_Move: 0.2 mm)
(Z Toolchange: 0.5 mm)
(X,Y Toolchange: 0.0000, 0.0000 mm)
(Z Start: None mm)
(Z End: 0.5 mm)
(Steps per circle: 128)
(Postprocessor Geometry: grbl_11)

(X range:    0.5467 ...   66.4351  mm)
(Y range:  -43.2721 ...   -1.4675  mm)

(Spindle Speed: 1000 RPM)

M03  S10
G04 P2
G21
G90
G94
G17

G01 F90.00
G00 Z0.2000

M03 S1000
G00 X8.5030 Y-2.8405
G01 F10.00
G01 Z-0.0510
G01 F90.00
G01 X8.4816 Y-2.8328 F90.00
G01 X8.4777 Y-2.8315 F90.00
G01 X8.4743 Y-2.8306 F90.00
G01 X8.4511 Y-2.8248 F90.00
G01 X8.4490 Y-2.8243 F90.00
G01 X8.4436 Y-2.8233 F90.00
G01 X8.4199 Y-2.8198 F90.00
G01 X8.4163 Y-2.8193 F90.00
G01 X8.4124 Y-2.8190 F90.00
G01 X8.3885 Y-2.8178 F90.00
G01 X8.3847 Y-2.8178 F90.00
G01 X7.8971 Y-2.8178 F90.00
G01 X7.8933 Y-2.8178 F90.00
G01 X7.8694 Y-2.8190 F90.00
G01 X7.8655 Y-2.8193 F90.00
G01 X7.8619 Y-2.8198 F90.00
G01 X7.8382 Y-2.8233 F90.00
G01 X7.8328 Y-2.8243 F90.00
G01 X7.8307 Y-2.8248 F90.00
G01 X7.8075 Y-2.8306 F90.00
G01 X7.8041 Y-2.8315 F90.00
G01 X7.8002 Y-2.8328 F90.00
G01 X7.7777 Y-2.8408 F90.00
G01 X7.7750 Y-2.8419 F90.00
G01 X7.7723 Y-2.8430 F90.00
G01 X7.7707 Y-2.8438 F90.00
G01 X7.7490 Y-2.8540 F90.00
G01 X7.7475 Y-2.8547 F90.00
G01 X7.7449 Y-2.8561 F90.00
G01 X7.7423 Y-2.8576 F90.00
G01 X7.7218 Y-2.8699 F90.00
G01 X7.7187 Y-2.8719 F90.00
G01 X7.7155 Y-2.8741 F90.00
G01 X7.6963 Y-2.8884 F90.00
G01 X7.6920 Y-2.8918 F90.00
G01 X7.6904 Y-2.8932 F90.00
G01 X7.6726 Y-2.9093 F90.00
G01 X7.6699 Y-2.9119 F90.00
G01 X7.6673 Y-2.9146 F90.00
G01 X7.6512 Y-2.9324 F90.00
G01 X7.6498 Y-2.9340 F90.00
G01 X7.6464 Y-2.9383 F90.00
G01 X7.6321 Y-2.9575 F90.00
G01 X7.6299 Y-2.9607 F90.00
G01 X7.6279 Y-2.9638 F90.00
G01 X7.6156 Y-2.9843 F90.00
G01 X7.6141 Y-2.9869 F90.00
G01 X7.6127 Y-2.9895 F90.00
G01 X7.6120 Y-2.9910 F90.00
G01 X7.6018 Y-3.0127 F90.00
G01 X7.6010 Y-3.0143 F90.00
G01 X7.5999 Y-3.0170 F90.00
G01 X7.5988 Y-3.0197 F90.00
G01 X7.5908 Y-3.0422 F90.00
G01 X7.5895 Y-3.0461 F90.00
G01 X7.5886 Y-3.0495 F90.00
G01 X7.5828 Y-3.0727 F90.00
G01 X7.5823 Y-3.0748 F90.00
G01 X7.5813 Y-3.0802 F90.00
G01 X7.5778 Y-3.1039 F90.00
G01 X7.5773 Y-3.1075 F90.00
G01 X7.5770 Y-3.1114 F90.00
G01 X7.5758 Y-3.1353 F90.00
G01 X7.5758 Y-3.1391 F90.00
G01 X7.5758 Y-4.0517 F90.00
G01 X7.5758 Y-4.0555 F90.00
G01 X7.5770 Y-4.0794 F90.00
G01 X7.5773 Y-4.0833 F90.00
G01 X7.5778 Y-4.0869 F90.00
G01 X7.5813 Y-4.1106 F90.00
G01 X7.5823 Y-4.1160 F90.00
G01 X7.5828 Y-4.1181 F90.00
G01 X7.5886 Y-4.1413 F90.00
G01 X7.5895 Y-4.1447 F90.00
G01 X7.5908 Y-4.1486 F90.00
G01 X7.5988 Y-4.1711 F90.00
G01 X7.5999 Y-4.1738 F90.00
G01 X7.6010 Y-4.1765 F90.00
G01 X7.6018 Y-4.1781 F90.00
G01 X7.6120 Y-4.1998 F90.00
G01 X7.6127 Y-4.2013 F90.00
G01 X7.6141 Y-4.2039 F90.00
G01 X7.6156 Y-4.2065 F90.00
G01 X7.6279 Y-4.2270 F90.00
G01 X7.6299 Y-4.2301 F90.00
G01 X7.6321 Y-4.2333 F90.00
G01 X7.6464 Y-4.2525 F90.00
G01 X7.6498 Y-4.2568 F90.00
G01 X7.6512 Y-4.2584 F90.00
G01 X7.6673 Y-4.2762 F90.00
G01 X7.6699 Y-4.2789 F90.00
G01 X7.6726 Y-4.2815 F90.00
G01 X7.6904 Y-4.2976 F90.00
G01 X7.6920 Y-4.2990 F90.00
G01 X7.6963 Y-4.3024 F90.00
G01 X7.7155 Y-4.3167 F90.00
G01 X7.7187 Y-4.3189 F90.00
G01 X7.7218 Y-4.3209 F90.00
G01 X7.7423 Y-4.3332 F90.00
G01 X7.7449 Y-4.3347 F90.00
G01 X7.7475 Y-4.3361 F90.00
G01 X7.7490 Y-4.3368 F90.00
G01 X7.7707 Y-4.3470 F90.00
G01 X7.7723 Y-4.3478 F90.00
G01 X7.7750 Y-4.3489 F90.00
G01 X7.7777 Y-4.3500 F90.00
G01 X7.8002 Y-4.3580 F90.00
G01 X7.8041 Y-4.3593 F90.00
G01 X7.8075 Y-4.3602 F90.00
G01 X7.8307 Y-4.3660 F90.00
G01 X7.8328 Y-4.3665 F90.00
G01 X7.8382 Y-4.3675 F90.00
G01 X7.8619 Y-4.3710 F90.00
G01 X7.8655 Y-4.3715 F90.00
G01 X7.8694 Y-4.3718 F90.00
G01 X7.8933 Y-4.3730 F90.00
G01 X7.8971 Y-4.3731 F90.00
G01 X8.3847 Y-4.3731 F90.00
G01 X8.3885 Y-4.3730 F90.00
G01 X8.4124 Y-4.3718 F90.00
G01 X8.4163 Y-4.3715 F90.00
G01 X8.4199 Y-4.3710 F90.00
G01 X8.4436 Y-4.3675 F90.00
G01 X8.4490 Y-4.3665 F90.00
G01 X8.4511 Y-4.3660 F90.00
G01 X8.4743 Y-4.3602 F90.00
G01 X8.4777 Y-4.3593 F90.00
G01 X8.4816 Y-4.3580 F90.00
G01 X8.5041 Y-4.3500 F90.00
G01 X8.5068 Y-4.3489 F90.00
G01 X8.5095 Y-4.3478 F90.00
G01 X8.5111 Y-4.3470 F90.00
G01 X8.5328 Y-4.3368 F90.00
G01 X8.5343 Y-4.3361 F90.00
G01 X8.5369 Y-4.3347 F90.00
G01 X8.5395 Y-4.3332 F90.00
G01 X8.5600 Y-4.3209 F90.00
G01 X8.5631 Y-4.3189 F90.00
G01 X8.5663 Y-4.3167 F90.00
G01 X8.5855 Y-4.3024 F90.00
G01 X8.5898 Y-4.2990 F90.00
G01 X8.5914 Y-4.2976 F90.00
G01 X8.6092 Y-4.2815 F90.00
G01 X8.6119 Y-4.2789 F90.00
G01 X8.6145 Y-4.2762 F90.00
G01 X8.6306 Y-4.2584 F90.00
G01 X8.6320 Y-4.2568 F90.00
G01 X8.6354 Y-4.2525 F90.00
G01 X8.6497 Y-4.2333 F90.00
G01 X8.6519 Y-4.2301 F90.00
G01 X8.6539 Y-4.2270 F90.00
G01 X8.6662 Y-4.2065 F90.00
G01 X8.6677 Y-4.2039 F90.00
G01 X8.6691 Y-4.2013 F90.00
G01 X8.6698 Y-4.1998 F90.00
G01 X8.6800 Y-4.1781 F90.00
G01 X8.6808 Y-4.1765 F90.00
G01 X8.6819 Y-4.1738 F90.00
G01 X8.6830 Y-4.1711 F90.00
G01 X8.6910 Y-4.1486 F90.00
G01 X8.6923 Y-4.1447 F90.00
G01 X8.6932 Y-4.1413 F90.00
G01 X8.6990 Y-4.1181 F90.00
G01 X8.6995 Y-4.1160 F90.00
G01 X8.7005 Y-4.1106 F90.00
G01 X8.7040 Y-4.0869 F90.00
G01 X8.7045 Y-4.0833 F90.00
G01 X8.7048 Y-4.0794 F90.00
G01 X8.7060 Y-4.0555 F90.00
G01 X8.7061 Y-4.0517 F90.00
G01 X8.7061 Y-3.4230 F90.00
G01 X9.7059 Y-2.4231 F90.00
G01 X23.9264 Y-2.4231 F90.00
G01 X24.6693 Y-3.1661 F90.00
G01 X24.6536 Y-3.1973 F90.00
G01 X24.6520 Y-3.2005 F90.00
G01 X24.6351 Y-3.2387 F90.00
G01 X24.6340 Y-3.2413 F90.00
G01 X24.6337 Y-3.2422 F90.00
G01 X24.6186 Y-3.2811 F90.00
G01 X24.6187 Y-3.2811 F90.00
G01 X24.6174 Y-3.2847 F90.00
G01 X24.6043 Y-3.3243 F90.00
G01 X24.6032 Y-3.3279 F90.00
G01 X24.5920 Y-3.3682 F90.00
G01 X24.5911 Y-3.3719 F90.00
G01 X24.5820 Y-3.4126 F90.00
G01 X24.5816 Y-3.4143 F90.00
G01 X24.5812 Y-3.4163 F90.00
G01 X24.5741 Y-3.4574 F90.00
G01 X24.5735 Y-3.4612 F90.00
G01 X24.5684 Y-3.5030 F90.00
G01 X24.5681 Y-3.5064 F90.00
G01 X24.5650 Y-3.5480 F90.00
G01 X24.5648 Y-3.5518 F90.00
G01 X24.5638 Y-3.5935 F90.00
G01 X24.5638 Y-3.5954 F90.00
G01 X24.5638 Y-3.5973 F90.00
G01 X24.5648 Y-3.6390 F90.00
G01 X24.5648 Y-3.6390 F90.00
G01 X24.5650 Y-3.6428 F90.00
G01 X24.5681 Y-3.6844 F90.00
G01 X24.5684 Y-3.6882 F90.00
G01 X24.5735 Y-3.7296 F90.00
G01 X24.5735 Y-3.7296 F90.00
G01 X24.5741 Y-3.7334 F90.00
G01 X24.5812 Y-3.7745 F90.00
G01 X24.5816 Y-3.7765 F90.00
G01 X24.5820 Y-3.7782 F90.00
G01 X24.5911 Y-3.8189 F90.00
G01 X24.5920 Y-3.8226 F90.00
G01 X24.6032 Y-3.8629 F90.00
G01 X24.6032 Y-3.8628 F90.00
G01 X24.6043 Y-3.8665 F90.00
G01 X24.6174 Y-3.9061 F90.00
G01 X24.6186 Y-3.9097 F90.00
G01 X24.6340 Y-3.9495 F90.00
G01 X24.6351 Y-3.9521 F90.00
G01 X24.6520 Y-3.9903 F90.00
G01 X24.6536 Y-3.9935 F90.00
G01 X24.6724 Y-4.0310 F90.00
G01 X24.6742 Y-4.0344 F90.00
G01 X24.6948 Y-4.0707 F90.00
G01 X24.6967 Y-4.0739 F90.00
G01 X24.7190 Y-4.1092 F90.00
G01 X24.7212 Y-4.1123 F90.00
G01 X24.7452 Y-4.1465 F90.00
G01 X24.7466 Y-4.1483 F90.00
G01 X24.7475 Y-4.1495 F90.00
G01 X24.7731 Y-4.1824 F90.00
G01 X24.7755 Y-4.1854 F90.00
G01 X24.8028 Y-4.2169 F90.00
G01 X24.8054 Y-4.2198 F90.00
G01 X24.8341 Y-4.2500 F90.00
G01 X24.8355 Y-4.2513 F90.00
G01 X24.8368 Y-4.2527 F90.00
G01 X24.8670 Y-4.2814 F90.00
G01 X24.8671 Y-4.2814 F90.00
G01 X24.8699 Y-4.2840 F90.00
G01 X24.9018 Y-4.3116 F90.00
G01 X24.9044 Y-4.3137 F90.00
G01 X24.9373 Y-4.3393 F90.00
G01 X24.9385 Y-4.3402 F90.00
G01 X24.9403 Y-4.3416 F90.00
G01 X24.9745 Y-4.3656 F90.00
G01 X24.9776 Y-4.3678 F90.00
G01 X25.0132 Y-4.3903 F90.00
G01 X25.0161 Y-4.3920 F90.00
G01 X25.0524 Y-4.4126 F90.00
G01 X25.0558 Y-4.4144 F90.00
G01 X25.0933 Y-4.4332 F90.00
G01 X25.0965 Y-4.4348 F90.00
G01 X25.1347 Y-4.4517 F90.00
G01 X25.1373 Y-4.4528 F90.00
G01 X25.1771 Y-4.4682 F90.00
G01 X25.1771 Y-4.4681 F90.00
G01 X25.1807 Y-4.4694 F90.00
G01 X25.2203 Y-4.4825 F90.00
G01 X25.2239 Y-4.4836 F90.00
G01 X25.2642 Y-4.4948 F90.00
G01 X25.2679 Y-4.4957 F90.00
G01 X25.3086 Y-4.5048 F90.00
G01 X25.3103 Y-4.5052 F90.00
G01 X25.3123 Y-4.5056 F90.00
G01 X25.3534 Y-4.5127 F90.00
G01 X25.3572 Y-4.5133 F90.00
G01 X25.3990 Y-4.5184 F90.00
G01 X25.4024 Y-4.5187 F90.00
G01 X25.4440 Y-4.5218 F90.00
G01 X25.4478 Y-4.5220 F90.00
G01 X25.4895 Y-4.5230 F90.00
G01 X25.4914 Y-4.5230 F90.00
G01 X25.4933 Y-4.5230 F90.00
G01 X25.5350 Y-4.5220 F90.00
G01 X25.5350 Y-4.5220 F90.00
G01 X25.5388 Y-4.5218 F90.00
G01 X25.5804 Y-4.5187 F90.00
G01 X25.5842 Y-4.5184 F90.00
G01 X25.6256 Y-4.5133 F90.00
G01 X25.6256 Y-4.5133 F90.00
G01 X25.6294 Y-4.5127 F90.00
G01 X25.6705 Y-4.5056 F90.00
G01 X25.6725 Y-4.5052 F90.00
G01 X25.6742 Y-4.5048 F90.00
G01 X25.7149 Y-4.4957 F90.00
G01 X25.7186 Y-4.4948 F90.00
G01 X25.7589 Y-4.4836 F90.00
G01 X25.7588 Y-4.4836 F90.00
G01 X25.7625 Y-4.4825 F90.00
G01 X25.8021 Y-4.4694 F90.00
G01 X25.8057 Y-4.4682 F90.00
G01 X25.8455 Y-4.4528 F90.00
G01 X25.8481 Y-4.4517 F90.00
G01 X25.8863 Y-4.4348 F90.00
G01 X25.8897 Y-4.4331 F90.00
G01 X25.9270 Y-4.4144 F90.00
G01 X25.9304 Y-4.4126 F90.00
G01 X25.9667 Y-4.3920 F90.00
G01 X25.9699 Y-4.3901 F90.00
G01 X26.0052 Y-4.3678 F90.00
G01 X26.0083 Y-4.3656 F90.00
G01 X26.0425 Y-4.3416 F90.00
G01 X26.0443 Y-4.3402 F90.00
G01 X26.0455 Y-4.3393 F90.00
G01 X26.0784 Y-4.3137 F90.00
G01 X26.0814 Y-4.3113 F90.00
G01 X26.1129 Y-4.2840 F90.00
G01 X26.1158 Y-4.2814 F90.00
G01 X26.1460 Y-4.2527 F90.00
G01 X26.1473 Y-4.2513 F90.00
G01 X26.1487 Y-4.2500 F90.00
G01 X26.1774 Y-4.2198 F90.00
G01 X26.1774 Y-4.2197 F90.00
G01 X26.1800 Y-4.2169 F90.00
G01 X26.2073 Y-4.1854 F90.00
G01 X26.2076 Y-4.1850 F90.00
G01 X26.2097 Y-4.1824 F90.00
G01 X26.2353 Y-4.1495 F90.00
G01 X26.2362 Y-4.1483 F90.00
G01 X26.2376 Y-4.1465 F90.00
G01 X26.2616 Y-4.1123 F90.00
G01 X26.2638 Y-4.1092 F90.00
G01 X26.2863 Y-4.0736 F90.00
G01 X26.2880 Y-4.0707 F90.00
G01 X26.3086 Y-4.0344 F90.00
G01 X26.3104 Y-4.0310 F90.00
G01 X26.3292 Y-3.9935 F90.00
G01 X26.3308 Y-3.9903 F90.00
G01 X26.3477 Y-3.9521 F90.00
G01 X26.3488 Y-3.9495 F90.00
G01 X26.3491 Y-3.9486 F90.00
G01 X26.3642 Y-3.9097 F90.00
G01 X26.3641 Y-3.9097 F90.00
G01 X26.3654 Y-3.9061 F90.00
G01 X26.3785 Y-3.8665 F90.00
G01 X26.3796 Y-3.8629 F90.00
G01 X26.3908 Y-3.8226 F90.00
G01 X26.3917 Y-3.8189 F90.00
G01 X26.4008 Y-3.7782 F90.00
G01 X26.4012 Y-3.7765 F90.00
G01 X26.4016 Y-3.7745 F90.00
G01 X26.4087 Y-3.7334 F90.00
G01 X26.4093 Y-3.7296 F90.00
G01 X26.4144 Y-3.6878 F90.00
G01 X26.4147 Y-3.6844 F90.00
G01 X26.4178 Y-3.6428 F90.00
G01 X26.4180 Y-3.6390 F90.00
G01 X26.4190 Y-3.5973 F90.00
G01 X26.4191 Y-3.5954 F90.00
G01 X26.4190 Y-3.5935 F90.00
G01 X26.4180 Y-3.5518 F90.00
G01 X26.4180 Y-3.5518 F90.00
G01 X26.4178 Y-3.5480 F90.00
G01 X26.4147 Y-3.5064 F90.00
G01 X26.4144 Y-3.5026 F90.00
G01 X26.4093 Y-3.4612 F90.00
G01 X26.4093 Y-3.4612 F90.00
G01 X26.4087 Y-3.4574 F90.00
G01 X26.4016 Y-3.4163 F90.00
G01 X26.4012 Y-3.4143 F90.00
G01 X26.4008 Y-3.4126 F90.00
G01 X26.3917 Y-3.3719 F90.00
G01 X26.3908 Y-3.3682 F90.00
G01 X26.3796 Y-3.3279 F90.00
G01 X26.3796 Y-3.3280 F90.00
G01 X26.3785 Y-3.3243 F90.00
G01 X26.3654 Y-3.2847 F90.00
G01 X26.3642 Y-3.2811 F90.00
G01 X26.3488 Y-3.2413 F90.00
G01 X26.3477 Y-3.2387 F90.00
G01 X26.3308 Y-3.2005 F90.00
G01 X26.3292 Y-3.1973 F90.00
G01 X26.3104 Y-3.1598 F90.00
G01 X26.3086 Y-3.1564 F90.00
G01 X26.2880 Y-3.1201 F90.00
G01 X26.2861 Y-3.1169 F90.00
G01 X26.2638 Y-3.0816 F90.00
G01 X26.2616 Y-3.0785 F90.00
G01 X26.2376 Y-3.0443 F90.00
G01 X26.2362 Y-3.0425 F90.00
G01 X26.2353 Y-3.0413 F90.00
G01 X26.2097 Y-3.0084 F90.00
G01 X26.2073 Y-3.0054 F90.00
G01 X26.1800 Y-2.9739 F90.00
G01 X26.1774 Y-2.9710 F90.00
G01 X26.1487 Y-2.9408 F90.00
G01 X26.1473 Y-2.9395 F90.00
G01 X26.1460 Y-2.9381 F90.00
G01 X26.1158 Y-2.9094 F90.00
G01 X26.1157 Y-2.9094 F90.00
G01 X26.1129 Y-2.9068 F90.00
G01 X26.0810 Y-2.8792 F90.00
G01 X26.0784 Y-2.8771 F90.00
G01 X26.0455 Y-2.8515 F90.00
G01 X26.0443 Y-2.8506 F90.00
G01 X26.0425 Y-2.8492 F90.00
G01 X26.0083 Y-2.8252 F90.00
G01 X26.0052 Y-2.8230 F90.00
G01 X25.9696 Y-2.8005 F90.00
G01 X25.9667 Y-2.7988 F90.00
G01 X25.9304 Y-2.7782 F90.00
G01 X25.9270 Y-2.7764 F90.00
G01 X25.8897 Y-2.7577 F90.00
G01 X25.8863 Y-2.7560 F90.00
G01 X25.8481 Y-2.7391 F90.00
G01 X25.8455 Y-2.7380 F90.00
G01 X25.8057 Y-2.7226 F90.00
G01 X25.8057 Y-2.7227 F90.00
G01 X25.8021 Y-2.7214 F90.00
G01 X25.7625 Y-2.7083 F90.00
G01 X25.7589 Y-2.7072 F90.00
G01 X25.7186 Y-2.6960 F90.00
G01 X25.7149 Y-2.6951 F90.00
G01 X25.6742 Y-2.6860 F90.00
G01 X25.6725 Y-2.6856 F90.00
G01 X25.6705 Y-2.6852 F90.00
G01 X25.6294 Y-2.6781 F90.00
G01 X25.6256 Y-2.6775 F90.00
G01 X25.5842 Y-2.6724 F90.00
G01 X25.5804 Y-2.6721 F90.00
G01 X25.5388 Y-2.6690 F90.00
G01 X25.5350 Y-2.6688 F90.00
G01 X25.4933 Y-2.6678 F90.00
G01 X25.4914 Y-2.6677 F90.00
G01 X25.4895 Y-2.6678 F90.00
G01 X25.4478 Y-2.6688 F90.00
G01 X25.4478 Y-2.6688 F90.00
G01 X25.4440 Y-2.6690 F90.00
G01 X25.4024 Y-2.6721 F90.00
G01 X25.3986 Y-2.6724 F90.00
G01 X25.3572 Y-2.6775 F90.00
G01 X25.3572 Y-2.6775 F90.00
G01 X25.3534 Y-2.6781 F90.00
G01 X25.3123 Y-2.6852 F90.00
G01 X25.3103 Y-2.6856 F90.00
G01 X25.3086 Y-2.6860 F90.00
G01 X25.2679 Y-2.6951 F90.00
G01 X25.2642 Y-2.6960 F90.00
G01 X25.2239 Y-2.7072 F90.00
G01 X25.2240 Y-2.7072 F90.00
G01 X25.2203 Y-2.7083 F90.00
G01 X25.1807 Y-2.7214 F90.00
G01 X25.1771 Y-2.7226 F90.00
G01 X25.1382 Y-2.7377 F90.00
G01 X25.1373 Y-2.7380 F90.00
G01 X25.1347 Y-2.7391 F90.00
G01 X25.0965 Y-2.7560 F90.00
G01 X25.0933 Y-2.7576 F90.00
G01 X25.0621 Y-2.7733 F90.00
G01 X24.2378 Y-1.9490 F90.00
G01 X24.2364 Y-1.9477 F90.00
G01 X24.2293 Y-1.9409 F90.00
G01 X24.2293 Y-1.9409 F90.00
G01 X24.2265 Y-1.9383 F90.00
G01 X24.2187 Y-1.9316 F90.00
G01 X24.2161 Y-1.9295 F90.00
G01 X24.2084 Y-1.9235 F90.00
G01 X24.2072 Y-1.9226 F90.00
G01 X24.2053 Y-1.9212 F90.00
G01 X24.1973 Y-1.9155 F90.00
G01 X24.1941 Y-1.9134 F90.00
G01 X24.1855 Y-1.9080 F90.00
G01 X24.1825 Y-1.9062 F90.00
G01 X24.1740 Y-1.9014 F90.00
G01 X24.1706 Y-1.8996 F90.00
G01 X24.1617 Y-1.8951 F90.00
G01 X24.1584 Y-1.8935 F90.00
G01 X24.1494 Y-1.8895 F90.00
G01 X24.1468 Y-1.8884 F90.00
G01 X24.1368 Y-1.8845 F90.00
G01 X24.1367 Y-1.8846 F90.00
G01 X24.1332 Y-1.8833 F90.00
G01 X24.1238 Y-1.8802 F90.00
G01 X24.1202 Y-1.8791 F90.00
G01 X24.1107 Y-1.8765 F90.00
G01 X24.1070 Y-1.8755 F90.00
G01 X24.0974 Y-1.8734 F90.00
G01 X24.0957 Y-1.8730 F90.00
G01 X24.0937 Y-1.8726 F90.00
G01 X24.0840 Y-1.8710 F90.00
G01 X24.0803 Y-1.8704 F90.00
G01 X24.0705 Y-1.8692 F90.00
G01 X24.0667 Y-1.8688 F90.00
G01 X24.0569 Y-1.8681 F90.00
G01 X24.0531 Y-1.8679 F90.00
G01 X24.0433 Y-1.8677 F90.00
G01 X24.0414 Y-1.8676 F90.00
G01 X9.5909 Y-1.8676 F90.00
G01 X9.5890 Y-1.8677 F90.00
G01 X9.5792 Y-1.8679 F90.00
G01 X9.5792 Y-1.8679 F90.00
G01 X9.5754 Y-1.8681 F90.00
G01 X9.5656 Y-1.8688 F90.00
G01 X9.5618 Y-1.8692 F90.00
G01 X9.5520 Y-1.8704 F90.00
G01 X9.5520 Y-1.8704 F90.00
G01 X9.5483 Y-1.8710 F90.00
G01 X9.5386 Y-1.8726 F90.00
G01 X9.5366 Y-1.8730 F90.00
G01 X9.5349 Y-1.8734 F90.00
G01 X9.5253 Y-1.8755 F90.00
G01 X9.5216 Y-1.8765 F90.00
G01 X9.5121 Y-1.8791 F90.00
G01 X9.5121 Y-1.8791 F90.00
G01 X9.5085 Y-1.8802 F90.00
G01 X9.4991 Y-1.8833 F90.00
G01 X9.4955 Y-1.8845 F90.00
G01 X9.4855 Y-1.8884 F90.00
G01 X9.4829 Y-1.8895 F90.00
G01 X9.4739 Y-1.8935 F90.00
G01 X9.4706 Y-1.8951 F90.00
G01 X9.4617 Y-1.8996 F90.00
G01 X9.4583 Y-1.9014 F90.00
G01 X9.4498 Y-1.9062 F90.00
G01 X9.4465 Y-1.9082 F90.00
G01 X9.4382 Y-1.9134 F90.00
G01 X9.4350 Y-1.9155 F90.00
G01 X9.4270 Y-1.9212 F90.00
G01 X9.4251 Y-1.9226 F90.00
G01 X9.4239 Y-1.9235 F90.00
G01 X9.4162 Y-1.9295 F90.00
G01 X9.4132 Y-1.9319 F90.00
G01 X9.4058 Y-1.9383 F90.00
G01 X9.4030 Y-1.9409 F90.00
G01 X9.3959 Y-1.9477 F90.00
G01 X9.3959 Y-1.9477 F90.00
G01 X9.3945 Y-1.9490 F90.00
G01 X8.5030 Y-2.8405 F90.00
G00 X8.5030 Y-2.8405
G01 F10.00
G01 Z-0.1020
G01 F90.00
G01 X8.4816 Y-2.8328 F90.00
G01 X8.4777 Y-2.8315 F90.00
