(G-CODE GENERATED BY FLATCAM v8.98 - www.flatcam.org - Version Date: 2019/10/16)

(Name: AstriPiCompute-PTH.drl_cnc_15_bottom)
(Type: G-code from Excellon)
(Units: MM)

(Created on Monday, 03 February 2020 at 18:21)

(Feedrate: 3.1496 mm/min)
(Feedrate rapids 31.4961 mm/min)

(Z_Cut: -2.1 mm)
(Z_Move: 0.3 mm)
(Z Toolchange: 0.5 mm)
(X,Y Toolchange: 0.0000, 0.0000 mm)
(Z Start: None mm)
(Z End: 0.5 mm)
(Steps per circle: 128)
(Postprocessor Excellon: grbl_11)
(X range:    0.9074 ...   65.3579  mm)
(Y range:  -41.9684 ...   -3.0954  mm)

(Spindle Speed: 1000.0 RPM)

M03  S10
G04 P2
G21
G90
G94
G17

G01 F3.15
G00 Z0.3000

M03 S1000.0
G00 X52.4154 Y-18.7114
G01 Z-2.1000
G01 Z0
G00 Z0.3000
G00 X52.4154 Y-24.1864
G01 Z-2.1000
G01 Z0
G00 Z0.3000
G00 X52.4154 Y-29.6614
G01 Z-2.1000
G01 Z0
G00 Z0.3000
M03 S1000.0
G00 X64.6074 Y-10.9614
G01 Z-2.1000
G01 Z0
G00 Z0.3000
G00 X64.6074 Y-16.0414
G01 Z-2.1000
G01 Z0
G00 Z0.3000
G00 X64.6074 Y-21.6294
G01 Z-2.1000
G01 Z0
G00 Z0.3000
G00 X64.6074 Y-26.7094
G01 Z-2.1000
G01 Z0
G00 Z0.3000
G00 X64.6074 Y-32.5514
G01 Z-2.1000
G01 Z0
G00 Z0.3000
G00 X64.6074 Y-37.6314
G01 Z-2.1000
G01 Z0
G00 Z0.3000
G00 X53.4314 Y-40.9334
G01 Z-2.1000
G01 Z0
G00 Z0.3000
G00 X48.3514 Y-40.9334
G01 Z-2.1000
G01 Z0
G00 Z0.3000
G00 X30.5714 Y-33.0594
G01 Z-2.1000
G01 Z0
G00 Z0.3000
G00 X25.4914 Y-33.0594
G01 Z-2.1000
G01 Z0
G00 Z0.3000
G00 X19.9034 Y-33.0594
G01 Z-2.1000
G01 Z0
G00 Z0.3000
G00 X14.8234 Y-33.0594
G01 Z-2.1000
G01 Z0
G00 Z0.3000
M05
G00 Z0.50
G00 X0.0 Y0.0

M02