(G-CODE GENERATED BY FLATCAM v8.98 - www.flatcam.org - Version Date: 2019/10/16)

(Name: AstriPiCompute-PTH.drl_cnc_08_bottom)
(Type: G-code from Excellon)
(Units: MM)

(Created on Saturday, 25 January 2020 at 12:52)

(Feedrate: 3.1496 mm/min)
(Feedrate rapids 31.4961 mm/min)

(Z_Cut: -1.9 mm)
(Z_Move: 0.5 mm)
(Z Toolchange: 0.5 mm)
(X,Y Toolchange: 0.0000, 0.0000 mm)
(Z Start: None mm)
(Z End: 0.5 mm)
(Steps per circle: 128)
(Postprocessor Excellon: grbl_11)
(X range:    5.0876 ...   46.1200  mm)
(Y range:  -65.5206 ...    1.0084  mm)

(Spindle Speed: None RPM)

M03  S10
G04 P2
G21
G90
G94
G17

G01 F3.15
G00 Z0.5000

M03
G00 X33.6550 Y-34.9250
G01 Z-1.9000
G01 Z0
G00 Z0.5000
G00 X22.8600 Y-30.4800
G01 Z-1.9000
G01 Z0
G00 Z0.5000
G00 X31.1150 Y-57.7850
G01 Z-1.9000
G01 Z0
G00 Z0.5000
M03
G00 X30.4800 Y-45.7200
G01 Z-1.9000
G01 Z0
G00 Z0.5000
G00 X27.9400 Y-44.4500
G01 Z-1.9000
G01 Z0
G00 Z0.5000
G00 X24.1300 Y-39.3700
G01 Z-1.9000
G01 Z0
G00 Z0.5000
G00 X24.1300 Y-36.8300
G01 Z-1.9000
G01 Z0
G00 Z0.5000
G00 X29.2100 Y-32.3850
G01 Z-1.9000
G01 Z0
G00 Z0.5000
G00 X26.6700 Y-30.4800
G01 Z-1.9000
G01 Z0
G00 Z0.5000
G00 X20.3200 Y-10.1600
G01 Z-1.9000
G01 Z0
G00 Z0.5000
G00 X19.5580 Y-21.5900
G01 Z-1.9000
G01 Z0
G00 Z0.5000
G00 X19.5580 Y-27.1780
G01 Z-1.9000
G01 Z0
G00 Z0.5000
G00 X20.3200 Y-45.7200
G01 Z-1.9000
G01 Z0
G00 Z0.5000
G00 X11.4300 Y-49.5300
G01 Z-1.9000
G01 Z0
G00 Z0.5000
G00 X16.5100 Y-52.0700
G01 Z-1.9000
G01 Z0
G00 Z0.5000
G00 X19.0500 Y-58.4200
G01 Z-1.9000
G01 Z0
G00 Z0.5000
G00 X24.7650 Y-57.1500
G01 Z-1.9000
G01 Z0
G00 Z0.5000
G00 X21.5900 Y-53.3400
G01 Z-1.9000
G01 Z0
G00 Z0.5000
G00 X27.9400 Y-51.8160
G01 Z-1.9000
G01 Z0
G00 Z0.5000
M03
G00 X36.8300 Y-5.0800
G01 Z-1.9000
G01 Z0
G00 Z0.5000
G00 X33.0200 Y-5.0800
G01 Z-1.9000
G01 Z0
G00 Z0.5000
G00 X25.4000 Y-5.0800
G01 Z-1.9000
G01 Z0
G00 Z0.5000
G00 X21.5900 Y-5.0800
G01 Z-1.9000
G01 Z0
G00 Z0.5000
G00 X45.7200 Y-22.8600
G01 Z-1.9000
G01 Z0
G00 Z0.5000
G00 X45.7200 Y-19.0500
G01 Z-1.9000
G01 Z0
G00 Z0.5000
G00 X45.7200 Y-8.8900
G01 Z-1.9000
G01 Z0
G00 Z0.5000
G00 X45.7200 Y-5.0800
G01 Z-1.9000
G01 Z0
G00 Z0.5000
M05
G00 Z0.50
G00 X0.0 Y0.0

M02