(G-CODE GENERATED BY FLATCAM v8.98 - www.flatcam.org - Version Date: 2019/10/16)

(Name: AstriPiCompute-F_Cu.gbr_iso_cnc)
(Type: G-code from Geometry)
(Units: MM)

(Created on Sunday, 26 January 2020 at 16:27)

(TOOL DIAMETER: 0.12 mm)

(Feedrate: 60.0 mm/min)
(Feedrate_Z: 10.0 mm/min)
(Feedrate rapids 3.1496 mm/min)

(Z_Cut: -0.06 mm)
(Z_Move: 0.2 mm)
(Z Toolchange: 0.5 mm)
(X,Y Toolchange: 0.0000, 0.0000 mm)
(Z Start: None mm)
(Z End: 0.5 mm)
(Steps per circle: 128)
(Postprocessor Geometry: grbl_11)

(X range:    0.5726 ...   48.3325  mm)
(Y range:  -70.5474 ...    3.4474  mm)

(Spindle Speed: 1000 RPM)

M03  S10
G04 P2
G21
G90
G94
G17

G01 F60.00
G00 Z0.2000

M03 S1000
G00 X0.5728 Y-1.0477
G01 F10.00
G01 Z-0.0600
G01 F60.00
G01 X0.5728 Y-1.0477 F60.00
G01 X0.5726 Y-1.0539 F60.00
G01 X0.5726 Y-1.0554 F60.00
G01 X0.5726 Y-29.4246 F60.00
G01 X0.5726 Y-29.4261 F60.00
G01 X0.5728 Y-29.4323 F60.00
G01 X0.5729 Y-29.4354 F60.00
G01 X0.5734 Y-29.4416 F60.00
G01 X0.5735 Y-29.4431 F60.00
G01 X0.5909 Y-29.6195 F60.00
G01 X0.5911 Y-29.6211 F60.00
G01 X0.5910 Y-29.6211 F60.00
G01 X0.5918 Y-29.6273 F60.00
G01 X0.5923 Y-29.6303 F60.00
G01 X0.5933 Y-29.6364 F60.00
G01 X0.5936 Y-29.6380 F60.00
G01 X0.5939 Y-29.6394 F60.00
G01 X0.5953 Y-29.6455 F60.00
G01 X0.5960 Y-29.6485 F60.00
G01 X0.5977 Y-29.6545 F60.00
G01 X0.5981 Y-29.6560 F60.00
G01 X0.6478 Y-29.8196 F60.00
G01 X0.6482 Y-29.8211 F60.00
G01 X0.6482 Y-29.8211 F60.00
G01 X0.6502 Y-29.8270 F60.00
G01 X0.6512 Y-29.8299 F60.00
G01 X0.6512 Y-29.8299 F60.00
G01 X0.6537 Y-29.8364 F60.00
G01 X0.6546 Y-29.8385 F60.00
G01 X0.6572 Y-29.8442 F60.00
G01 X0.6584 Y-29.8468 F60.00
G01 X0.6613 Y-29.8526 F60.00
G01 X0.6620 Y-29.8539 F60.00
G01 X0.7426 Y-30.0047 F60.00
G01 X0.7433 Y-30.0061 F60.00
G01 X0.7464 Y-30.0115 F60.00
G01 X0.7478 Y-30.0139 F60.00
G01 X0.7513 Y-30.0194 F60.00
G01 X0.7530 Y-30.0220 F60.00
G01 X0.7566 Y-30.0271 F60.00
G01 X0.7577 Y-30.0286 F60.00
G01 X0.7623 Y-30.0344 F60.00
G01 X0.7632 Y-30.0356 F60.00
G01 X0.7632 Y-30.0356 F60.00
G01 X0.8757 Y-30.1727 F60.00
G01 X0.8767 Y-30.1738 F60.00
G01 X0.8807 Y-30.1786 F60.00
G01 X0.8828 Y-30.1808 F60.00
G01 X0.8828 Y-30.1808 F60.00
G01 X0.8871 Y-30.1853 F60.00
G01 X0.8882 Y-30.1864 F60.00
G01 X6.6447 Y-35.9429 F60.00
G01 X6.6468 Y-35.9453 F60.00
G01 X6.7623 Y-36.0860 F60.00
G01 X6.7658 Y-36.0913 F60.00
G01 X6.8495 Y-36.2477 F60.00
G01 X6.8519 Y-36.2536 F60.00
G01 X6.9034 Y-36.4233 F60.00
G01 X6.9046 Y-36.4295 F60.00
G01 X6.9224 Y-36.6107 F60.00
G01 X6.9226 Y-36.6139 F60.00
G01 X6.9226 Y-68.2710 F60.00
G01 X6.9226 Y-68.2725 F60.00
G01 X6.9228 Y-68.2787 F60.00
G01 X6.9229 Y-68.2818 F60.00
G01 X6.9234 Y-68.2880 F60.00
G01 X6.9235 Y-68.2895 F60.00
G01 X6.9408 Y-68.4657 F60.00
G01 X6.9410 Y-68.4672 F60.00
G01 X6.9410 Y-68.4672 F60.00
G01 X6.9417 Y-68.4734 F60.00
G01 X6.9422 Y-68.4764 F60.00
G01 X6.9433 Y-68.4825 F60.00
G01 X6.9435 Y-68.4841 F60.00
G01 X6.9438 Y-68.4855 F60.00
G01 X6.9452 Y-68.4916 F60.00
G01 X6.9459 Y-68.4945 F60.00
G01 X6.9476 Y-68.5005 F60.00
G01 X6.9480 Y-68.5020 F60.00
G01 X6.9846 Y-68.6227 F60.00
G01 X6.9851 Y-68.6242 F60.00
G01 X6.9850 Y-68.6242 F60.00
G01 X6.9870 Y-68.6302 F60.00
G01 X6.9881 Y-68.6331 F60.00
G01 X6.9881 Y-68.6331 F60.00
G01 X6.9906 Y-68.6397 F60.00
G01 X6.9916 Y-68.6419 F60.00
G01 X6.9941 Y-68.6477 F60.00
G01 X6.9953 Y-68.6503 F60.00
G01 X6.9983 Y-68.6562 F60.00
G01 X6.9998 Y-68.6589 F60.00
G01 X7.0030 Y-68.6644 F60.00
G01 X7.0044 Y-68.6668 F60.00
G01 X7.0080 Y-68.6725 F60.00
G01 X7.0098 Y-68.6750 F60.00
G01 X7.0097 Y-68.6750 F60.00
G01 X7.0134 Y-68.6802 F60.00
G01 X7.0143 Y-68.6815 F60.00
G01 X8.3072 Y-70.4053 F60.00
G01 X8.3081 Y-70.4065 F60.00
G01 X8.3120 Y-70.4114 F60.00
G01 X8.3136 Y-70.4134 F60.00
G01 X8.3180 Y-70.4184 F60.00
G01 X8.3200 Y-70.4206 F60.00
G01 X8.3200 Y-70.4206 F60.00
G01 X8.3243 Y-70.4251 F60.00
G01 X8.3265 Y-70.4272 F60.00
G01 X8.3309 Y-70.4315 F60.00
G01 X8.3328 Y-70.4332 F60.00
G01 X8.3379 Y-70.4375 F60.00
G01 X8.3403 Y-70.4394 F60.00
G01 X8.3402 Y-70.4394 F60.00
G01 X8.3459 Y-70.4438 F60.00
G01 X8.3476 Y-70.4450 F60.00
G01 X8.3526 Y-70.4486 F60.00
G01 X8.3552 Y-70.4502 F60.00
G01 X8.3604 Y-70.4535 F60.00
G01 X8.3624 Y-70.4547 F60.00
G01 X8.3684 Y-70.4581 F60.00
G01 X8.3711 Y-70.4595 F60.00
G01 X8.3766 Y-70.4623 F60.00
G01 X8.3793 Y-70.4636 F60.00
G01 X8.3793 Y-70.4636 F60.00
G01 X8.3850 Y-70.4661 F60.00
G01 X8.3878 Y-70.4673 F60.00
G01 X8.3935 Y-70.4695 F60.00
G01 X8.3964 Y-70.4705 F60.00
G01 X8.4023 Y-70.4725 F60.00
G01 X8.4037 Y-70.4729 F60.00
G01 X8.5648 Y-70.5218 F60.00
G01 X8.5663 Y-70.5222 F60.00
G01 X8.5662 Y-70.5223 F60.00
G01 X8.5723 Y-70.5239 F60.00
G01 X8.5752 Y-70.5247 F60.00
G01 X8.5813 Y-70.5260 F60.00
G01 X8.5828 Y-70.5263 F60.00
G01 X8.5843 Y-70.5266 F60.00
G01 X8.5905 Y-70.5277 F60.00
G01 X8.5935 Y-70.5282 F60.00
G01 X8.5997 Y-70.5289 F60.00
G01 X8.6012 Y-70.5291 F60.00
G01 X8.7778 Y-70.5465 F60.00
G01 X8.7794 Y-70.5466 F60.00
G01 X8.7794 Y-70.5466 F60.00
G01 X8.7856 Y-70.5471 F60.00
G01 X8.7887 Y-70.5472 F60.00
G01 X8.7887 Y-70.5472 F60.00
G01 X8.7949 Y-70.5474 F60.00
G01 X8.7964 Y-70.5474 F60.00
G01 X12.3596 Y-70.5474 F60.00
G01 X12.3612 Y-70.5474 F60.00
G01 X12.3674 Y-70.5472 F60.00
G01 X12.3705 Y-70.5471 F60.00
G01 X12.3767 Y-70.5466 F60.00
G01 X12.3794 Y-70.5464 F60.00
G01 X12.3859 Y-70.5456 F60.00
G01 X12.3889 Y-70.5451 F60.00
G01 X12.3951 Y-70.5441 F60.00
G01 X12.3966 Y-70.5438 F60.00
G01 X12.3981 Y-70.5435 F60.00
G01 X12.4042 Y-70.5421 F60.00
G01 X12.4071 Y-70.5413 F60.00
G01 X12.4131 Y-70.5397 F60.00
G01 X12.4161 Y-70.5388 F60.00
G01 X12.4220 Y-70.5368 F60.00
G01 X12.4249 Y-70.5358 F60.00
G01 X12.4249 Y-70.5358 F60.00
G01 X12.4314 Y-70.5333 F60.00
G01 X12.4335 Y-70.5324 F60.00
G01 X12.4392 Y-70.5299 F60.00
G01 X12.4420 Y-70.5286 F60.00
G01 X12.4476 Y-70.5258 F60.00
G01 X12.4503 Y-70.5243 F60.00
G01 X12.4557 Y-70.5212 F60.00
G01 X12.4581 Y-70.5198 F60.00
G01 X12.4636 Y-70.5163 F60.00
G01 X12.4661 Y-70.5146 F60.00
G01 X12.4712 Y-70.5110 F60.00
G01 X12.4727 Y-70.5099 F60.00
G01 X12.4737 Y-70.5092 F60.00
G01 X12.4786 Y-70.5054 F60.00
G01 X12.4807 Y-70.5037 F60.00
G01 X12.4857 Y-70.4994 F60.00
G01 X12.4879 Y-70.4973 F60.00
G01 X12.4880 Y-70.4973 F60.00
G01 X12.4925 Y-70.4930 F60.00
G01 X12.4936 Y-70.4919 F60.00
G01 X12.4946 Y-70.4908 F60.00
G01 X12.4989 Y-70.4863 F60.00
G01 X12.5010 Y-70.4841 F60.00
G01 X12.5051 Y-70.4793 F60.00
G01 X12.5070 Y-70.4770 F60.00
G01 X12.5116 Y-70.4711 F60.00
G01 X12.5127 Y-70.4696 F60.00
G01 X12.5163 Y-70.4645 F60.00
G01 X12.5180 Y-70.4619 F60.00
G01 X12.5213 Y-70.4567 F60.00
G01 X12.5229 Y-70.4541 F60.00
G01 X12.5259 Y-70.4486 F60.00
G01 X12.5274 Y-70.4459 F60.00
G01 X12.5303 Y-70.4402 F60.00
G01 X12.5315 Y-70.4376 F60.00
G01 X12.5340 Y-70.4319 F60.00
G01 X12.5349 Y-70.4298 F60.00
G01 X12.5374 Y-70.4232 F60.00
G01 X12.5385 Y-70.4204 F60.00
G01 X12.5404 Y-70.4144 F60.00
G01 X12.5413 Y-70.4115 F60.00
G01 X12.5413 Y-70.4115 F60.00
G01 X12.5430 Y-70.4055 F60.00
G01 X12.5437 Y-70.4025 F60.00
G01 X12.5451 Y-70.3964 F60.00
G01 X12.5454 Y-70.3950 F60.00
G01 X12.5457 Y-70.3934 F60.00
G01 X12.5468 Y-70.3873 F60.00
G01 X12.5472 Y-70.3843 F60.00
G01 X12.5480 Y-70.3781 F60.00
G01 X12.5483 Y-70.3750 F60.00
G01 X12.5487 Y-70.3688 F60.00
G01 X12.5488 Y-70.3658 F60.00
G01 X12.5489 Y-70.3658 F60.00
G01 X12.5490 Y-70.3595 F60.00
G01 X12.5490 Y-70.3580 F60.00
G01 X12.5490 Y-70.3565 F60.00
G01 X12.5489 Y-70.3502 F60.00
G01 X12.5487 Y-70.3472 F60.00
G01 X12.5483 Y-70.3410 F60.00
G01 X12.5480 Y-70.3383 F60.00
G01 X12.5472 Y-70.3317 F60.00
G01 X12.5468 Y-70.3287 F60.00
G01 X12.5457 Y-70.3226 F60.00
G01 X12.5454 Y-70.3210 F60.00
G01 X12.5451 Y-70.3196 F60.00
G01 X12.5437 Y-70.3135 F60.00
G01 X12.5430 Y-70.3105 F60.00
G01 X12.5413 Y-70.3045 F60.00
G01 X12.5404 Y-70.3016 F60.00
G01 X12.5385 Y-70.2956 F60.00
G01 X12.5374 Y-70.2928 F60.00
G01 X12.5374 Y-70.2928 F60.00
G01 X12.5349 Y-70.2862 F60.00
G01 X12.5340 Y-70.2841 F60.00
G01 X12.5315 Y-70.2784 F60.00
G01 X12.5303 Y-70.2758 F60.00
G01 X12.5274 Y-70.2701 F60.00
G01 X12.5259 Y-70.2674 F60.00
G01 X12.5229 Y-70.2619 F60.00
G01 X12.5215 Y-70.2596 F60.00
G01 X12.5180 Y-70.2541 F60.00
G01 X12.5163 Y-70.2515 F60.00
G01 X12.5127 Y-70.2464 F60.00
G01 X12.5116 Y-70.2449 F60.00
G01 X12.5070 Y-70.2390 F60.00
G01 X12.5053 Y-70.2370 F60.00
G01 X12.5010 Y-70.2319 F60.00
G01 X12.4989 Y-70.2297 F60.00
G01 X12.4989 Y-70.2297 F60.00
G01 X12.4946 Y-70.2252 F60.00
G01 X12.4936 Y-70.2241 F60.00
G01 X11.5086 Y-69.2391 F60.00
G01 X11.5075 Y-69.2381 F60.00
G01 X11.5030 Y-69.2338 F60.00
G01 X11.5008 Y-69.2317 F60.00
G01 X11.4960 Y-69.2276 F60.00
G01 X11.4937 Y-69.2257 F60.00
G01 X11.4888 Y-69.2219 F60.00
G01 X11.4878 Y-69.2211 F60.00
G01 X11.4863 Y-69.2200 F60.00
G01 X11.4812 Y-69.2164 F60.00
G01 X11.4787 Y-69.2147 F60.00
G01 X11.4734 Y-69.2114 F60.00
G01 X11.4708 Y-69.2098 F60.00
G01 X11.4653 Y-69.2068 F60.00
G01 X11.4626 Y-69.2053 F60.00
G01 X11.4569 Y-69.2024 F60.00
G01 X11.4543 Y-69.2012 F60.00
G01 X11.4486 Y-69.1987 F60.00
G01 X11.4465 Y-69.1978 F60.00
G01 X11.4400 Y-69.1953 F60.00
G01 X11.4371 Y-69.1942 F60.00
G01 X11.4311 Y-69.1923 F60.00
G01 X11.4282 Y-69.1914 F60.00
G01 X11.4282 Y-69.1914 F60.00
G01 X11.4222 Y-69.1897 F60.00
G01 X11.4192 Y-69.1890 F60.00
G01 X11.4132 Y-69.1876 F60.00
G01 X11.4117 Y-69.1873 F60.00
G01 X11.4102 Y-69.1870 F60.00
G01 X11.4040 Y-69.1860 F60.00
G01 X11.4010 Y-69.1855 F60.00
G01 X11.3948 Y-69.1847 F60.00
G01 X11.3917 Y-69.1844 F60.00
G01 X11.3855 Y-69.1840 F60.00
G01 X11.3825 Y-69.1839 F60.00
G01 X11.3825 Y-69.1838 F60.00
G01 X11.3762 Y-69.1837 F60.00
G01 X11.3747 Y-69.1837 F60.00
G01 X10.9831 Y-69.1837 F60.00
G01 X10.8388 Y-69.1695 F60.00
G01 X10.7091 Y-69.1301 F60.00
G01 X10.5896 Y-69.0662 F60.00
G01 X10.4848 Y-68.9802 F60.00
G01 X10.3988 Y-68.8754 F60.00
G01 X10.3349 Y-68.7559 F60.00
G01 X10.2955 Y-68.6262 F60.00
G01 X10.2813 Y-68.4819 F60.00
G01 X10.2813 Y-68.0131 F60.00
G01 X10.2955 Y-67.8688 F60.00
G01 X10.3349 Y-67.7391 F60.00
G01 X10.3988 Y-67.6196 F60.00
G01 X10.4848 Y-67.5148 F60.00
G01 X10.5559 Y-67.4564 F60.00
G01 X10.5571 Y-67.4554 F60.00
G01 X10.5618 Y-67.4514 F60.00
G01 X10.5641 Y-67.4493 F60.00
G01 X10.5641 Y-67.4493 F60.00
G01 X10.5686 Y-67.4450 F60.00
G01 X10.5697 Y-67.4439 F60.00
G01 X10.5708 Y-67.4428 F60.00
G01 X10.5751 Y-67.4383 F60.00
G01 X10.5771 Y-67.4361 F60.00
G01 X10.5812 Y-67.4313 F60.00
G01 X10.5831 Y-67.4290 F60.00
G01 X10.5877 Y-67.4231 F60.00
G01 X10.5888 Y-67.4216 F60.00
G01 X10.5924 Y-67.4165 F60.00
G01 X10.5941 Y-67.4139 F60.00
G01 X10.5974 Y-67.4087 F60.00
G01 X10.5990 Y-67.4061 F60.00
G01 X10.6021 Y-67.4006 F60.00
G01 X10.6035 Y-67.3979 F60.00
G01 X10.6064 Y-67.3922 F60.00
G01 X10.6076 Y-67.3896 F60.00
G01 X10.6101 Y-67.3839 F60.00
G01 X10.6110 Y-67.3818 F60.00
G01 X10.6136 Y-67.3752 F60.00
G01 X10.6146 Y-67.3724 F60.00
G01 X10.6166 Y-67.3664 F60.00
G01 X10.6174 Y-67.3635 F60.00
G01 X10.6174 Y-67.3635 F60.00
G01 X10.6191 Y-67.3575 F60.00
G01 X10.6198 Y-67.3545 F60.00
G01 X10.6212 Y-67.3484 F60.00
G01 X10.6215 Y-67.3470 F60.00
G01 X10.6218 Y-67.3454 F60.00
G01 X10.6229 Y-67.3393 F60.00
G01 X10.6233 Y-67.3363 F60.00
G01 X10.6241 Y-67.3301 F60.00
G01 X10.6244 Y-67.3270 F60.00
G01 X10.6248 Y-67.3208 F60.00
G01 X10.6250 Y-67.3178 F60.00
G01 X10.6250 Y-67.3178 F60.00
G01 X10.6252 Y-67.3115 F60.00
G01 X10.6252 Y-67.3100 F60.00
G01 X10.6252 Y-67.3085 F60.00
G01 X10.6250 Y-67.3022 F60.00
G01 X10.6248 Y-67.2992 F60.00
G01 X10.6244 Y-67.2930 F60.00
G01 X10.6241 Y-67.2903 F60.00
G01 X10.6233 Y-67.2837 F60.00
G01 X10.6229 Y-67.2807 F60.00
G01 X10.6218 Y-67.2746 F60.00
G01 X10.6215 Y-67.2730 F60.00
G01 X10.6212 Y-67.2716 F60.00
G01 X10.6198 Y-67.2655 F60.00
G01 X10.6191 Y-67.2625 F60.00
G01 X10.6174 Y-67.2565 F60.00
G01 X10.6166 Y-67.2536 F60.00
G01 X10.6146 Y-67.2476 F60.00
G01 X10.6135 Y-67.2448 F60.00
G01 X10.6136 Y-67.2448 F60.00
G01 X10.6110 Y-67.2382 F60.00
G01 X10.6101 Y-67.2361 F60.00
G01 X10.6076 Y-67.2304 F60.00
G01 X10.6064 Y-67.2278 F60.00
G01 X10.6035 Y-67.2221 F60.00
G01 X10.6021 Y-67.2194 F60.00
G01 X10.5990 Y-67.2139 F60.00
G01 X10.5976 Y-67.2116 F60.00
G01 X10.5941 Y-67.2061 F60.00
G01 X10.5924 Y-67.2035 F60.00
G01 X10.5888 Y-67.1984 F60.00
G01 X10.5877 Y-67.1969 F60.00
G01 X10.5831 Y-67.1910 F60.00
G01 X10.5814 Y-67.1890 F60.00
G01 X10.5771 Y-67.1839 F60.00
G01 X10.5750 Y-67.1817 F60.00
G01 X10.5751 Y-67.1817 F60.00
G01 X10.5708 Y-67.1772 F60.00
G01 X10.5697 Y-67.1761 F60.00
G01 X10.5686 Y-67.1750 F60.00
G01 X10.5641 Y-67.1707 F60.00
G01 X10.5618 Y-67.1686 F60.00
G01 X10.5571 Y-67.1646 F60.00
G01 X10.5559 Y-67.1636 F60.00
G01 X10.5559 Y-67.1636 F60.00
G01 X10.4848 Y-67.1052 F60.00
G01 X10.3988 Y-67.0004 F60.00
G01 X10.3349 Y-66.8809 F60.00
G01 X10.2955 Y-66.7512 F60.00
G01 X10.2813 Y-66.6069 F60.00
G01 X10.2813 Y-66.1381 F60.00
G01 X10.2955 Y-65.9938 F60.00
G01 X10.3349 Y-65.8641 F60.00
G01 X10.3988 Y-65.7446 F60.00
G01 X10.4848 Y-65.6398 F60.00
G01 X10.5896 Y-65.5538 F60.00
G01 X10.6843 Y-65.5032 F60.00
G01 X10.6856 Y-65.5024 F60.00
G01 X10.6911 Y-65.4994 F60.00
G01 X10.6924 Y-65.4986 F60.00
G01 X10.6937 Y-65.4978 F60.00
G01 X10.6990 Y-65.4944 F60.00
G01 X10.7015 Y-65.4927 F60.00
G01 X10.7066 Y-65.4892 F60.00
G01 X10.7081 Y-65.4881 F60.00
G01 X10.7140 Y-65.4835 F60.00
G01 X10.7160 Y-65.4818 F60.00
G01 X10.7211 Y-65.4775 F60.00
G01 X10.7233 Y-65.4754 F60.00
G01 X10.7233 Y-65.4754 F60.00
G01 X10.7278 Y-65.4711 F60.00
G01 X10.7289 Y-65.4701 F60.00
G01 X10.7300 Y-65.4690 F60.00
G01 X10.7343 Y-65.4644 F60.00
G01 X10.7364 Y-65.4622 F60.00
G01 X10.7404 Y-65.4575 F60.00
G01 X10.7424 Y-65.4551 F60.00
G01 X10.7469 Y-65.4492 F60.00
G01 X10.7480 Y-65.4477 F60.00
G01 X10.7516 Y-65.4426 F60.00
G01 X10.7533 Y-65.4401 F60.00
G01 X10.7567 Y-65.4348 F60.00
G01 X10.7582 Y-65.4322 F60.00
G01 X10.7613 Y-65.4268 F60.00
G01 X10.7628 Y-65.4241 F60.00
G01 X10.7656 Y-65.4183 F60.00
G01 X10.7669 Y-65.4157 F60.00
G01 X10.7694 Y-65.4100 F60.00
G01 X10.7703 Y-65.4079 F60.00
G01 X10.7728 Y-65.4014 F60.00
G01 X10.7738 Y-65.3985 F60.00
G01 X10.7758 Y-65.3926 F60.00
G01 X10.7767 Y-65.3896 F60.00
G01 X10.7767 Y-65.3896 F60.00
G01 X10.7783 Y-65.3836 F60.00
G01 X10.7791 Y-65.3807 F60.00
G01 X10.7805 Y-65.3746 F60.00
G01 X10.7808 Y-65.3731 F60.00
G01 X10.7811 Y-65.3716 F60.00
G01 X10.7821 Y-65.3654 F60.00
G01 X10.7826 Y-65.3624 F60.00
G01 X10.7833 Y-65.3562 F60.00
G01 X10.7836 Y-65.3532 F60.00
G01 X10.7841 Y-65.3469 F60.00
G01 X10.7842 Y-65.3439 F60.00
G01 X10.7842 Y-65.3439 F60.00
G01 X10.7844 Y-65.3377 F60.00
G01 X10.7844 Y-65.3361 F60.00
G01 X10.7844 Y-52.0635 F60.00
G01 X10.7844 Y-52.0620 F60.00
G01 X10.7842 Y-52.0558 F60.00
G01 X10.7841 Y-52.0527 F60.00
G01 X10.7836 Y-52.0465 F60.00
G01 X10.7835 Y-52.0450 F60.00
G01 X10.7813 Y-52.0225 F60.00
G01 X10.7938 Y-51.8959 F60.00
G01 X10.8307 Y-51.7743 F60.00
G01 X10.8906 Y-51.6621 F60.00
G01 X10.9713 Y-51.5638 F60.00
G01 X10.9887 Y-51.5495 F60.00
G01 X10.9899 Y-51.5485 F60.00
G01 X10.9946 Y-51.5444 F60.00
G01 X10.9969 Y-51.5423 F60.00
G01 X10.9969 Y-51.5424 F60.00
G01 X11.0014 Y-51.5381 F60.00
G01 X11.0025 Y-51.5370 F60.00
G01 X12.4659 Y-50.0736 F60.00
G01 X12.4669 Y-50.0725 F60.00
G01 X12.4712 Y-50.0680 F60.00
G01 X12.4733 Y-50.0658 F60.00
G01 X12.4774 Y-50.0610 F60.00
G01 X12.4793 Y-50.0587 F60.00
G01 X12.4839 Y-50.0528 F60.00
G01 X12.4850 Y-50.0513 F60.00
G01 X12.4886 Y-50.0462 F60.00
G01 X12.4903 Y-50.0437 F60.00
G01 X12.4936 Y-50.0384 F60.00
G01 X12.4952 Y-50.0358 F60.00
G01 X12.4982 Y-50.0303 F60.00
G01 X12.4997 Y-50.0276 F60.00
G01 X12.5026 Y-50.0219 F60.00
G01 X12.5038 Y-50.0193 F60.00
G01 X12.5063 Y-50.0136 F60.00
G01 X12.5072 Y-50.0115 F60.00
G01 X12.5097 Y-50.0049 F60.00
G01 X12.5108 Y-50.0021 F60.00
G01 X12.5127 Y-49.9961 F60.00
G01 X12.5136 Y-49.9932 F60.00
G01 X12.5136 Y-49.9932 F60.00
G01 X12.5153 Y-49.9872 F60.00
G01 X12.5160 Y-49.9842 F60.00
G01 X12.5174 Y-49.9782 F60.00
G01 X12.5177 Y-49.9767 F60.00
G01 X12.5180 Y-49.9752 F60.00
G01 X12.5190 Y-49.9690 F60.00
G01 X12.5195 Y-49.9660 F60.00
G01 X12.5203 Y-49.9598 F60.00
G01 X12.5206 Y-49.9567 F60.00
G01 X12.5210 Y-49.9505 F60.00
G01 X12.5211 Y-49.9475 F60.00
G01 X12.5212 Y-49.9475 F60.00
G01 X12.5213 Y-49.9412 F60.00
