(G-CODE GENERATED BY FLATCAM v8.98 - www.flatcam.org - Version Date: 2019/10/16)

(Name: AstriPiCompute-PTH.drl_cnc_15)
(Type: G-code from Excellon)
(Units: MM)

(Created on Saturday, 25 January 2020 at 20:49)

(Feedrate: 3.1496 mm/min)
(Feedrate rapids 31.4961 mm/min)

(Z_Cut: -2.2000000000000006 mm)
(Z_Move: 0.2 mm)
(Z Toolchange: 0.5 mm)
(X,Y Toolchange: 0.0000, 0.0000 mm)
(Z Start: None mm)
(Z End: 0.5 mm)
(Steps per circle: 128)
(Postprocessor Excellon: grbl_11)
(X range:    4.6800 ...   45.7120  mm)
(Y range:  -65.5205 ...    1.0080  mm)

(Spindle Speed: 1000.0 RPM)

M03  S10
G04 P2
G21
G90
G94
G17

G01 F3.15
G00 Z0.2000

M03 S1000.0
G00 X13.9700 Y-16.5100
G01 Z-2.2000
G01 Z0
G00 Z0.2000
G00 X19.4450 Y-16.5100
G01 Z-2.2000
G01 Z0
G00 Z0.2000
G00 X24.9200 Y-16.5100
G01 Z-2.2000
G01 Z0
G00 Z0.2000
M03 S1000.0
G00 X27.9400 Y-64.7700
G01 Z-2.2000
G01 Z0
G00 Z0.2000
G00 X33.0200 Y-64.7700
G01 Z-2.2000
G01 Z0
G00 Z0.2000
G00 X39.3700 Y-64.7700
G01 Z-2.2000
G01 Z0
G00 Z0.2000
G00 X44.4500 Y-64.7700
G01 Z-2.2000
G01 Z0
G00 Z0.2000
M05
G00 Z0.50
G00 X0.0 Y0.0

M02