(G-CODE GENERATED BY FLATCAM v8.98 - www.flatcam.org - Version Date: 2019/10/16)

(Name: AstriPiCompute-PTH.drl_cnc_15_bottom)
(Type: G-code from Excellon)
(Units: MM)

(Created on Saturday, 25 January 2020 at 12:51)

(Feedrate: 3.1496 mm/min)
(Feedrate rapids 31.4961 mm/min)

(Z_Cut: -1.9000000000000006 mm)
(Z_Move: 0.5 mm)
(Z Toolchange: 0.5 mm)
(X,Y Toolchange: 0.0000, 0.0000 mm)
(Z Start: None mm)
(Z End: 0.5 mm)
(Steps per circle: 128)
(Postprocessor Excellon: grbl_11)
(X range:    5.0876 ...   46.1200  mm)
(Y range:  -65.5206 ...    1.0084  mm)

(Spindle Speed: None RPM)

M03  S10
G04 P2
G21
G90
G94
G17

G01 F3.15
G00 Z0.5000

M03
G00 X36.8300 Y-16.5100
G01 Z-1.9000
G01 Z0
G00 Z0.5000
G00 X31.3538 Y-16.5100
G01 Z-1.9000
G01 Z0
G00 Z0.5000
G00 X25.8801 Y-16.5100
G01 Z-1.9000
G01 Z0
G00 Z0.5000
M03
G00 X11.4300 Y-64.7700
G01 Z-1.9000
G01 Z0
G00 Z0.5000
G00 X6.3500 Y-64.7700
G01 Z-1.9000
G01 Z0
G00 Z0.5000
G00 X17.7800 Y-64.7700
G01 Z-1.9000
G01 Z0
G00 Z0.5000
G00 X22.8600 Y-64.7700
G01 Z-1.9000
G01 Z0
G00 Z0.5000
M05
G00 Z0.50
G00 X0.0 Y0.0

M02