(G-CODE GENERATED BY FLATCAM v8.98 - www.flatcam.org - Version Date: 2019/10/16)

(Name: AstriPiCompute-Edge_Cuts.gbr_cutout_cnc)
(Type: G-code from Geometry)
(Units: MM)

(Created on Monday, 03 February 2020 at 18:24)

(TOOL DIAMETER: 1.5 mm)

(Feedrate: 90.0 mm/min)
(Feedrate_Z: 10.0 mm/min)
(Feedrate rapids 3.1496 mm/min)

(Z_Cut: -0.1 mm)
(DepthPerCut: 0.051 mm <=>2 passes)
(Z_Move: 0.2 mm)
(Z Toolchange: 0.5 mm)
(X,Y Toolchange: 0.0000, 0.0000 mm)
(Z Start: None mm)
(Z End: 0.5 mm)
(Steps per circle: 128)
(Postprocessor Geometry: grbl_11)

(X range:   -0.6875 ...   68.4343  mm)
(Y range:  -44.5063 ...    0.7395  mm)

(Spindle Speed: 1000 RPM)

M03  S10
G04 P2
G21
G90
G94
G17

G01 F90.00
G00 Z0.2000

M03 S1000
G00 X-0.6875 Y-20.1295
G01 F10.00
G01 Z-0.0510
G01 F90.00
G01 X-0.6875 Y-1.5634 F90.00
G01 X-0.6873 Y-1.5449 F90.00
G01 X-0.6873 Y-1.5437 F90.00
G01 X-0.6854 Y-1.5067 F90.00
G01 X-0.6853 Y-1.5055 F90.00
G01 X-0.6817 Y-1.4687 F90.00
G01 X-0.6816 Y-1.4674 F90.00
G01 X-0.6761 Y-1.4308 F90.00
G01 X-0.6759 Y-1.4296 F90.00
G01 X-0.6724 Y-1.4107 F90.00
G01 X-0.6687 Y-1.3933 F90.00
G01 X-0.6684 Y-1.3921 F90.00
G01 X-0.6595 Y-1.3562 F90.00
G01 X-0.6591 Y-1.3551 F90.00
G01 X-0.6484 Y-1.3197 F90.00
G01 X-0.6480 Y-1.3185 F90.00
G01 X-0.6355 Y-1.2836 F90.00
G01 X-0.6317 Y-1.2738 F90.00
G01 X-0.6209 Y-1.2483 F90.00
G01 X-0.6204 Y-1.2472 F90.00
G01 X-0.6055 Y-1.2156 F90.00
G01 X-0.6041 Y-1.2126 F90.00
G01 X-0.5866 Y-1.1800 F90.00
G01 X-0.5860 Y-1.1789 F90.00
G01 X-0.5670 Y-1.1472 F90.00
G01 X-0.5663 Y-1.1462 F90.00
G01 X-0.5458 Y-1.1154 F90.00
G01 X-0.5451 Y-1.1144 F90.00
G01 X-0.5318 Y-1.0962 F90.00
G01 X-0.5230 Y-1.0847 F90.00
G01 X-0.5223 Y-1.0837 F90.00
G01 X-0.4988 Y-1.0551 F90.00
G01 X-0.4980 Y-1.0542 F90.00
G01 X-0.4731 Y-1.0268 F90.00
G01 X-0.4723 Y-1.0259 F90.00
G01 X-0.4594 Y-1.0126 F90.00
G01 X1.0646 Y0.5114 F90.00
G01 X1.0779 Y0.5243 F90.00
G01 X1.0788 Y0.5251 F90.00
G01 X1.1062 Y0.5500 F90.00
G01 X1.1071 Y0.5508 F90.00
G01 X1.1357 Y0.5743 F90.00
G01 X1.1367 Y0.5750 F90.00
G01 X1.1482 Y0.5838 F90.00
G01 X1.1664 Y0.5971 F90.00
G01 X1.1674 Y0.5978 F90.00
G01 X1.1982 Y0.6183 F90.00
G01 X1.1992 Y0.6190 F90.00
G01 X1.2309 Y0.6380 F90.00
G01 X1.2320 Y0.6386 F90.00
G01 X1.2646 Y0.6561 F90.00
G01 X1.2675 Y0.6575 F90.00
G01 X1.2992 Y0.6724 F90.00
G01 X1.3003 Y0.6729 F90.00
G01 X1.3258 Y0.6837 F90.00
G01 X1.3356 Y0.6875 F90.00
G01 X1.3705 Y0.7000 F90.00
G01 X1.3717 Y0.7004 F90.00
G01 X1.4071 Y0.7111 F90.00
G01 X1.4082 Y0.7115 F90.00
G01 X1.4441 Y0.7204 F90.00
G01 X1.4453 Y0.7207 F90.00
G01 X1.4627 Y0.7244 F90.00
G01 X1.4816 Y0.7279 F90.00
G01 X1.4828 Y0.7281 F90.00
G01 X1.5194 Y0.7336 F90.00
G01 X1.5207 Y0.7337 F90.00
G01 X1.5575 Y0.7373 F90.00
G01 X1.5587 Y0.7374 F90.00
G01 X1.5957 Y0.7393 F90.00
G01 X1.5969 Y0.7393 F90.00
G01 X1.6154 Y0.7395 F90.00
G01 X32.1273 Y0.7395 F90.00
G00 X32.1273 Y0.7395
G01 F10.00
G01 Z-0.1000
G01 F90.00
G01 X1.6154 Y0.7395 F90.00
G01 X1.5969 Y0.7393 F90.00
G01 X1.5957 Y0.7393 F90.00
G01 X1.5587 Y0.7374 F90.00
G01 X1.5575 Y0.7373 F90.00
G01 X1.5207 Y0.7337 F90.00
G01 X1.5194 Y0.7336 F90.00
G01 X1.4828 Y0.7281 F90.00
G01 X1.4816 Y0.7279 F90.00
G01 X1.4627 Y0.7244 F90.00
G01 X1.4453 Y0.7207 F90.00
G01 X1.4441 Y0.7204 F90.00
G01 X1.4082 Y0.7115 F90.00
G01 X1.4071 Y0.7111 F90.00
G01 X1.3717 Y0.7004 F90.00
G01 X1.3705 Y0.7000 F90.00
G01 X1.3356 Y0.6875 F90.00
G01 X1.3258 Y0.6837 F90.00
G01 X1.3003 Y0.6729 F90.00
G01 X1.2992 Y0.6724 F90.00
G01 X1.2675 Y0.6575 F90.00
G01 X1.2646 Y0.6561 F90.00
G01 X1.2320 Y0.6386 F90.00
G01 X1.2309 Y0.6380 F90.00
G01 X1.1992 Y0.6190 F90.00
G01 X1.1982 Y0.6183 F90.00
G01 X1.1674 Y0.5978 F90.00
G01 X1.1664 Y0.5971 F90.00
G01 X1.1482 Y0.5838 F90.00
G01 X1.1367 Y0.5750 F90.00
G01 X1.1357 Y0.5743 F90.00
G01 X1.1071 Y0.5508 F90.00
G01 X1.1062 Y0.5500 F90.00
G01 X1.0788 Y0.5251 F90.00
G01 X1.0779 Y0.5243 F90.00
G01 X1.0646 Y0.5114 F90.00
G01 X-0.4594 Y-1.0126 F90.00
G01 X-0.4723 Y-1.0259 F90.00
G01 X-0.4731 Y-1.0268 F90.00
G01 X-0.4980 Y-1.0542 F90.00
G01 X-0.4988 Y-1.0551 F90.00
G01 X-0.5223 Y-1.0837 F90.00
G01 X-0.5230 Y-1.0847 F90.00
G01 X-0.5318 Y-1.0962 F90.00
G01 X-0.5451 Y-1.1144 F90.00
G01 X-0.5458 Y-1.1154 F90.00
G01 X-0.5663 Y-1.1462 F90.00
G01 X-0.5670 Y-1.1472 F90.00
G01 X-0.5860 Y-1.1789 F90.00
G01 X-0.5866 Y-1.1800 F90.00
G01 X-0.6041 Y-1.2126 F90.00
G01 X-0.6055 Y-1.2156 F90.00
G01 X-0.6204 Y-1.2472 F90.00
G01 X-0.6209 Y-1.2483 F90.00
G01 X-0.6317 Y-1.2738 F90.00
G01 X-0.6355 Y-1.2836 F90.00
G01 X-0.6480 Y-1.3185 F90.00
G01 X-0.6484 Y-1.3197 F90.00
G01 X-0.6591 Y-1.3551 F90.00
G01 X-0.6595 Y-1.3562 F90.00
G01 X-0.6684 Y-1.3921 F90.00
G01 X-0.6687 Y-1.3933 F90.00
G01 X-0.6724 Y-1.4107 F90.00
G01 X-0.6759 Y-1.4296 F90.00
G01 X-0.6761 Y-1.4308 F90.00
G01 X-0.6816 Y-1.4674 F90.00
G01 X-0.6817 Y-1.4687 F90.00
G01 X-0.6853 Y-1.5055 F90.00
G01 X-0.6854 Y-1.5067 F90.00
G01 X-0.6873 Y-1.5437 F90.00
G01 X-0.6873 Y-1.5449 F90.00
G01 X-0.6875 Y-1.5634 F90.00
G01 X-0.6875 Y-20.1295 F90.00
G00 Z0.2000
G00 X-0.6875 Y-23.6295
G01 F10.00
G01 Z-0.0510
G01 F90.00
G01 X-0.6875 Y-36.1074 F90.00
G01 X-0.6873 Y-36.1259 F90.00
G01 X-0.6873 Y-36.1271 F90.00
G01 X-0.6854 Y-36.1641 F90.00
G01 X-0.6853 Y-36.1653 F90.00
G01 X-0.6817 Y-36.2021 F90.00
G01 X-0.6816 Y-36.2034 F90.00
G01 X-0.6761 Y-36.2400 F90.00
G01 X-0.6759 Y-36.2412 F90.00
G01 X-0.6724 Y-36.2601 F90.00
G01 X-0.6687 Y-36.2775 F90.00
G01 X-0.6684 Y-36.2787 F90.00
G01 X-0.6595 Y-36.3146 F90.00
G01 X-0.6591 Y-36.3157 F90.00
G01 X-0.6484 Y-36.3511 F90.00
G01 X-0.6480 Y-36.3523 F90.00
G01 X-0.6355 Y-36.3872 F90.00
G01 X-0.6317 Y-36.3970 F90.00
G01 X-0.6209 Y-36.4225 F90.00
G01 X-0.6204 Y-36.4236 F90.00
G01 X-0.6055 Y-36.4553 F90.00
G01 X-0.6041 Y-36.4582 F90.00
G01 X-0.5866 Y-36.4908 F90.00
G01 X-0.5860 Y-36.4919 F90.00
G01 X-0.5670 Y-36.5236 F90.00
G01 X-0.5663 Y-36.5246 F90.00
G01 X-0.5458 Y-36.5554 F90.00
G01 X-0.5451 Y-36.5564 F90.00
G01 X-0.5318 Y-36.5747 F90.00
G01 X-0.5230 Y-36.5861 F90.00
G01 X-0.5223 Y-36.5871 F90.00
G01 X-0.4988 Y-36.6157 F90.00
G01 X-0.4980 Y-36.6166 F90.00
G01 X-0.4731 Y-36.6440 F90.00
G01 X-0.4723 Y-36.6449 F90.00
G01 X-0.4594 Y-36.6582 F90.00
G01 X1.0646 Y-38.1822 F90.00
G01 X1.0779 Y-38.1951 F90.00
G01 X1.0788 Y-38.1959 F90.00
G01 X1.1062 Y-38.2208 F90.00
G01 X1.1071 Y-38.2216 F90.00
G01 X1.1357 Y-38.2451 F90.00
G01 X1.1367 Y-38.2458 F90.00
G01 X1.1482 Y-38.2546 F90.00
G01 X1.1664 Y-38.2679 F90.00
G01 X1.1674 Y-38.2686 F90.00
G01 X1.1982 Y-38.2891 F90.00
G01 X1.1992 Y-38.2898 F90.00
G01 X1.2309 Y-38.3088 F90.00
G01 X1.2320 Y-38.3094 F90.00
G01 X1.2646 Y-38.3269 F90.00
G01 X1.2676 Y-38.3283 F90.00
G01 X1.2992 Y-38.3432 F90.00
G01 X1.3003 Y-38.3437 F90.00
G01 X1.3258 Y-38.3545 F90.00
G01 X1.3356 Y-38.3583 F90.00
G01 X1.3705 Y-38.3708 F90.00
G01 X1.3717 Y-38.3712 F90.00
G01 X1.4071 Y-38.3819 F90.00
G01 X1.4082 Y-38.3823 F90.00
G01 X1.4441 Y-38.3912 F90.00
G01 X1.4453 Y-38.3915 F90.00
G01 X1.4627 Y-38.3952 F90.00
G01 X1.4816 Y-38.3987 F90.00
G01 X1.4828 Y-38.3989 F90.00
G01 X1.5194 Y-38.4044 F90.00
G01 X1.5207 Y-38.4045 F90.00
G01 X1.5575 Y-38.4081 F90.00
G01 X1.5587 Y-38.4082 F90.00
G01 X1.5957 Y-38.4101 F90.00
G01 X1.5969 Y-38.4101 F90.00
G01 X1.6154 Y-38.4103 F90.00
G01 X29.2328 Y-38.4103 F90.00
G01 X32.1273 Y-41.3048 F90.00
G00 X32.1273 Y-41.3048
G01 F10.00
G01 Z-0.1000
G01 F90.00
G01 X29.2328 Y-38.4103 F90.00
G01 X1.6154 Y-38.4103 F90.00
G01 X1.5969 Y-38.4101 F90.00
G01 X1.5957 Y-38.4101 F90.00
G01 X1.5587 Y-38.4082 F90.00
G01 X1.5575 Y-38.4081 F90.00
G01 X1.5207 Y-38.4045 F90.00
G01 X1.5194 Y-38.4044 F90.00
G01 X1.4828 Y-38.3989 F90.00
G01 X1.4816 Y-38.3987 F90.00
G01 X1.4627 Y-38.3952 F90.00
G01 X1.4453 Y-38.3915 F90.00
G01 X1.4441 Y-38.3912 F90.00
G01 X1.4082 Y-38.3823 F90.00
G01 X1.4071 Y-38.3819 F90.00
G01 X1.3717 Y-38.3712 F90.00
G01 X1.3705 Y-38.3708 F90.00
G01 X1.3356 Y-38.3583 F90.00
G01 X1.3258 Y-38.3545 F90.00
G01 X1.3003 Y-38.3437 F90.00
G01 X1.2992 Y-38.3432 F90.00
G01 X1.2676 Y-38.3283 F90.00
G01 X1.2646 Y-38.3269 F90.00
G01 X1.2320 Y-38.3094 F90.00
G01 X1.2309 Y-38.3088 F90.00
G01 X1.1992 Y-38.2898 F90.00
G01 X1.1982 Y-38.2891 F90.00
G01 X1.1674 Y-38.2686 F90.00
G01 X1.1664 Y-38.2679 F90.00
G01 X1.1482 Y-38.2546 F90.00
G01 X1.1367 Y-38.2458 F90.00
G01 X1.1357 Y-38.2451 F90.00
G01 X1.1071 Y-38.2216 F90.00
G01 X1.1062 Y-38.2208 F90.00
G01 X1.0788 Y-38.1959 F90.00
G01 X1.0779 Y-38.1951 F90.00
G01 X1.0646 Y-38.1822 F90.00
G01 X-0.4594 Y-36.6582 F90.00
G01 X-0.4723 Y-36.6449 F90.00
G01 X-0.4731 Y-36.6440 F90.00
G01 X-0.4980 Y-36.6166 F90.00
G01 X-0.4988 Y-36.6157 F90.00
G01 X-0.5223 Y-36.5871 F90.00
G01 X-0.5230 Y-36.5861 F90.00
G01 X-0.5318 Y-36.5747 F90.00
G01 X-0.5451 Y-36.5564 F90.00
G01 X-0.5458 Y-36.5554 F90.00
G01 X-0.5663 Y-36.5246 F90.00
G01 X-0.5670 Y-36.5236 F90.00
G01 X-0.5860 Y-36.4919 F90.00
G01 X-0.5866 Y-36.4908 F90.00
G01 X-0.6041 Y-36.4582 F90.00
G01 X-0.6055 Y-36.4553 F90.00
G01 X-0.6204 Y-36.4236 F90.00
G01 X-0.6209 Y-36.4225 F90.00
G01 X-0.6317 Y-36.3970 F90.00
G01 X-0.6355 Y-36.3872 F90.00
G01 X-0.6480 Y-36.3523 F90.00
G01 X-0.6484 Y-36.3511 F90.00
G01 X-0.6591 Y-36.3157 F90.00
G01 X-0.6595 Y-36.3146 F90.00
G01 X-0.6684 Y-36.2787 F90.00
G01 X-0.6687 Y-36.2775 F90.00
G01 X-0.6724 Y-36.2601 F90.00
G01 X-0.6759 Y-36.2412 F90.00
G01 X-0.6761 Y-36.2400 F90.00
G01 X-0.6816 Y-36.2034 F90.00
G01 X-0.6817 Y-36.2021 F90.00
G01 X-0.6853 Y-36.1653 F90.00
G01 X-0.6854 Y-36.1641 F90.00
G01 X-0.6873 Y-36.1271 F90.00
G01 X-0.6873 Y-36.1259 F90.00
G01 X-0.6875 Y-36.1074 F90.00
G01 X-0.6875 Y-23.6295 F90.00
G00 Z0.2000
G00 X35.6273 Y-44.5058
G01 F10.00
G01 Z-0.0510
G01 F90.00
G01 X35.6317 Y-44.5061 F90.00
G01 X35.6329 Y-44.5061 F90.00
G01 X35.6514 Y-44.5063 F90.00
G01 X63.0842 Y-44.5063 F90.00
G01 X63.1027 Y-44.5061 F90.00
G01 X63.1039 Y-44.5060 F90.00
G01 X63.1223 Y-44.5053 F90.00
G01 X63.1409 Y-44.5042 F90.00
G01 X63.1420 Y-44.5041 F90.00
G01 X63.1605 Y-44.5025 F90.00
G01 X63.1789 Y-44.5004 F90.00
G01 X63.1801 Y-44.5003 F90.00
G01 X63.1984 Y-44.4978 F90.00
G01 X63.2167 Y-44.4948 F90.00
G01 X63.2179 Y-44.4946 F90.00
G01 X63.2361 Y-44.4912 F90.00
G01 X63.2542 Y-44.4873 F90.00
G01 X63.2554 Y-44.4871 F90.00
G01 X63.2734 Y-44.4828 F90.00
G01 X63.2913 Y-44.4780 F90.00
G01 X63.2924 Y-44.4777 F90.00
G01 X63.3102 Y-44.4726 F90.00
G01 X63.3279 Y-44.4669 F90.00
G01 X63.3290 Y-44.4666 F90.00
G01 X63.3465 Y-44.4605 F90.00
G01 X63.3639 Y-44.4541 F90.00
G01 X63.3730 Y-44.4505 F90.00
G01 X63.3822 Y-44.4467 F90.00
G01 X63.3992 Y-44.4394 F90.00
G01 X63.4003 Y-44.4389 F90.00
G01 X63.4171 Y-44.4312 F90.00
G01 X63.4313 Y-44.4243 F90.00
G01 X63.4348 Y-44.4225 F90.00
G01 X63.4513 Y-44.4140 F90.00
G01 X63.4675 Y-44.4050 F90.00
G01 X63.4685 Y-44.4045 F90.00
G01 X63.4845 Y-44.3951 F90.00
G01 X63.5003 Y-44.3854 F90.00
G01 X63.5012 Y-44.3847 F90.00
G01 X63.5167 Y-44.3746 F90.00
G01 X63.5320 Y-44.3641 F90.00
G01 X63.5330 Y-44.3634 F90.00
G01 X63.5480 Y-44.3526 F90.00
G01 X63.5507 Y-44.3506 F90.00
G01 X63.5627 Y-44.3413 F90.00
G01 X63.5637 Y-44.3406 F90.00
G01 X63.5781 Y-44.3290 F90.00
G01 X63.5923 Y-44.3171 F90.00
G01 X63.5932 Y-44.3163 F90.00
G01 X63.6070 Y-44.3040 F90.00
G01 X68.1796 Y-40.1435 F90.00
G01 X68.1926 Y-40.1314 F90.00
G01 X68.1935 Y-40.1306 F90.00
G01 X68.2067 Y-40.1176 F90.00
G01 X68.2196 Y-40.1044 F90.00
G01 X68.2204 Y-40.1035 F90.00
G01 X68.2330 Y-40.0899 F90.00
G01 X68.2453 Y-40.0760 F90.00
G01 X68.2461 Y-40.0751 F90.00
G01 X68.2580 Y-40.0609 F90.00
G01 X68.2695 Y-40.0465 F90.00
G01 X68.2786 Y-40.0347 F90.00
G01 X68.2815 Y-40.0308 F90.00
G01 X68.2923 Y-40.0158 F90.00
G01 X68.2930 Y-40.0148 F90.00
G01 X68.3035 Y-39.9995 F90.00
G01 X68.3136 Y-39.9840 F90.00
G01 X68.3142 Y-39.9830 F90.00
G01 X68.3239 Y-39.9672 F90.00
G01 X68.3332 Y-39.9512 F90.00
G01 X68.3338 Y-39.9502 F90.00
G01 X68.3427 Y-39.9339 F90.00
G01 X68.3512 Y-39.9175 F90.00
G01 X68.3517 Y-39.9164 F90.00
G01 X68.3523 Y-39.9152 F90.00
G01 X68.3599 Y-39.8997 F90.00
G01 X68.3676 Y-39.8829 F90.00
G01 X68.3680 Y-39.8818 F90.00
G01 X68.3753 Y-39.8648 F90.00
G01 X68.3822 Y-39.8476 F90.00
G01 X68.3826 Y-39.8465 F90.00
G01 X68.3890 Y-39.8291 F90.00
G01 X68.3950 Y-39.8116 F90.00
G01 X68.3954 Y-39.8105 F90.00
G01 X68.4010 Y-39.7928 F90.00
G01 X68.4061 Y-39.7750 F90.00
G01 X68.4064 Y-39.7738 F90.00
G01 X68.4112 Y-39.7559 F90.00
G01 X68.4154 Y-39.7379 F90.00
G01 X68.4157 Y-39.7367 F90.00
G01 X68.4192 Y-39.7201 F90.00
G01 X68.4195 Y-39.7186 F90.00
G01 X68.4229 Y-39.7004 F90.00
G01 X68.4231 Y-39.6992 F90.00
G01 X68.4260 Y-39.6809 F90.00
G01 X68.4285 Y-39.6626 F90.00
G01 X68.4286 Y-39.6614 F90.00
G01 X68.4306 Y-39.6430 F90.00
G01 X68.4322 Y-39.6245 F90.00
G01 X68.4323 Y-39.6234 F90.00
G01 X68.4334 Y-39.6048 F90.00
G01 X68.4341 Y-39.5863 F90.00
G01 X68.4341 Y-39.5852 F90.00
G01 X68.4343 Y-39.5674 F90.00
G01 X68.4343 Y-23.6295 F90.00
G00 X68.4343 Y-23.6295
G01 F10.00
G01 Z-0.1000
G01 F90.00
G01 X68.4343 Y-39.5674 F90.00
G01 X68.4341 Y-39.5852 F90.00
G01 X68.4341 Y-39.5863 F90.00
G01 X68.4334 Y-39.6048 F90.00
G01 X68.4323 Y-39.6234 F90.00
G01 X68.4322 Y-39.6245 F90.00
G01 X68.4306 Y-39.6430 F90.00
G01 X68.4286 Y-39.6614 F90.00
G01 X68.4285 Y-39.6626 F90.00
G01 X68.4260 Y-39.6809 F90.00
G01 X68.4231 Y-39.6992 F90.00
G01 X68.4229 Y-39.7004 F90.00
G01 X68.4195 Y-39.7186 F90.00
G01 X68.4192 Y-39.7201 F90.00
G01 X68.4157 Y-39.7367 F90.00
G01 X68.4154 Y-39.7379 F90.00
G01 X68.4112 Y-39.7559 F90.00
G01 X68.4064 Y-39.7738 F90.00
G01 X68.4061 Y-39.7750 F90.00
G01 X68.4010 Y-39.7928 F90.00
G01 X68.3954 Y-39.8105 F90.00
G01 X68.3950 Y-39.8116 F90.00
G01 X68.3890 Y-39.8291 F90.00
G01 X68.3826 Y-39.8465 F90.00
G01 X68.3822 Y-39.8476 F90.00
G01 X68.3753 Y-39.8648 F90.00
G01 X68.3680 Y-39.8818 F90.00
G01 X68.3676 Y-39.8829 F90.00
G01 X68.3599 Y-39.8997 F90.00
G01 X68.3523 Y-39.9152 F90.00
G01 X68.3517 Y-39.9164 F90.00
G01 X68.3512 Y-39.9175 F90.00
G01 X68.3427 Y-39.9339 F90.00
G01 X68.3338 Y-39.9502 F90.00
G01 X68.3332 Y-39.9512 F90.00
G01 X68.3239 Y-39.9672 F90.00
G01 X68.3142 Y-39.9830 F90.00
G01 X68.3136 Y-39.9840 F90.00
G01 X68.3035 Y-39.9995 F90.00
G01 X68.2930 Y-40.0148 F90.00
G01 X68.2923 Y-40.0158 F90.00
G01 X68.2815 Y-40.0308 F90.00
G01 X68.2786 Y-40.0347 F90.00
G01 X68.2695 Y-40.0465 F90.00
G01 X68.2580 Y-40.0609 F90.00
G01 X68.2461 Y-40.0751 F90.00
G01 X68.2453 Y-40.0760 F90.00
G01 X68.2330 Y-40.0899 F90.00
G01 X68.2204 Y-40.1035 F90.00
G01 X68.2196 Y-40.1044 F90.00
G01 X68.2067 Y-40.1176 F90.00
G01 X68.1935 Y-40.1306 F90.00
G01 X68.1926 Y-40.1314 F90.00
G01 X68.1796 Y-40.1435 F90.00
G01 X63.6070 Y-44.3040 F90.00
G01 X63.5932 Y-44.3163 F90.00
G01 X63.5923 Y-44.3171 F90.00
G01 X63.5781 Y-44.3290 F90.00
G01 X63.5637 Y-44.3406 F90.00
G01 X63.5627 Y-44.3413 F90.00
G01 X63.5507 Y-44.3506 F90.00
G01 X63.5480 Y-44.3526 F90.00
G01 X63.5330 Y-44.3634 F90.00
G01 X63.5320 Y-44.3641 F90.00
G01 X63.5167 Y-44.3746 F90.00
G01 X63.5012 Y-44.3847 F90.00
G01 X63.5003 Y-44.3854 F90.00
G01 X63.4845 Y-44.3951 F90.00
G01 X63.4685 Y-44.4045 F90.00
G01 X63.4675 Y-44.4050 F90.00
G01 X63.4513 Y-44.4140 F90.00
G01 X63.4348 Y-44.4225 F90.00
G01 X63.4313 Y-44.4243 F90.00
G01 X63.4171 Y-44.4312 F90.00
G01 X63.4003 Y-44.4389 F90.00
G01 X63.3992 Y-44.4394 F90.00
G01 X63.3822 Y-44.4467 F90.00
G01 X63.3730 Y-44.4505 F90.00
G01 X63.3639 Y-44.4541 F90.00
G01 X63.3465 Y-44.4605 F90.00
G01 X63.3290 Y-44.4666 F90.00
G01 X63.3279 Y-44.4669 F90.00
G01 X63.3102 Y-44.4726 F90.00
G01 X63.2924 Y-44.4777 F90.00
G01 X63.2913 Y-44.4780 F90.00
G01 X63.2734 Y-44.4828 F90.00
G01 X63.2554 Y-44.4871 F90.00
G01 X63.2542 Y-44.4873 F90.00
G01 X63.2361 Y-44.4912 F90.00
G01 X63.2179 Y-44.4946 F90.00
G01 X63.2167 Y-44.4948 F90.00
G01 X63.1984 Y-44.4978 F90.00
G01 X63.1801 Y-44.5003 F90.00
G01 X63.1789 Y-44.5004 F90.00
G01 X63.1605 Y-44.5025 F90.00
G01 X63.1420 Y-44.5041 F90.00
G01 X63.1409 Y-44.5042 F90.00
G01 X63.1223 Y-44.5053 F90.00
G01 X63.1039 Y-44.5060 F90.00
G01 X63.1027 Y-44.5061 F90.00
G01 X63.0842 Y-44.5063 F90.00
G01 X35.6514 Y-44.5063 F90.00
G01 X35.6329 Y-44.5061 F90.00
G01 X35.6317 Y-44.5061 F90.00
G01 X35.6273 Y-44.5058 F90.00
G00 Z0.2000
G00 X68.4343 Y-20.1295
G01 F10.00
G01 Z-0.0510
G01 F90.00
G01 X68.4343 Y-1.5634 F90.00
G01 X68.4342 Y-1.5562 F90.00
