(G-CODE GENERATED BY FLATCAM v8.98 - www.flatcam.org - Version Date: 2019/10/16)

(Name: AstriPiCompute-PTH.drl_cnc_10)
(Type: G-code from Excellon)
(Units: MM)

(Created on Saturday, 25 January 2020 at 20:49)

(Feedrate: 3.1496 mm/min)
(Feedrate rapids 31.4961 mm/min)

(Z_Cut: -2.2 mm)
(Z_Move: 0.2 mm)
(Z Toolchange: 0.5 mm)
(X,Y Toolchange: 0.0000, 0.0000 mm)
(Z Start: None mm)
(Z End: 0.5 mm)
(Steps per circle: 128)
(Postprocessor Excellon: grbl_11)
(X range:    4.6800 ...   45.7120  mm)
(Y range:  -65.5205 ...    1.0080  mm)

(Spindle Speed: 1000.0 RPM)

M03  S10
G04 P2
G21
G90
G94
G17

G01 F3.15
G00 Z0.2000

M03 S1000.0
G00 X42.6720 Y0.5080
G01 Z-2.2000
G01 Z0
G00 Z0.2000
G00 X45.2120 Y0.5080
G01 Z-2.2000
G01 Z0
G00 Z0.2000
G00 X45.2120 Y-2.0320
G01 Z-2.2000
G01 Z0
G00 Z0.2000
G00 X45.2120 Y-4.5720
G01 Z-2.2000
G01 Z0
G00 Z0.2000
G00 X45.2120 Y-7.1120
G01 Z-2.2000
G01 Z0
G00 Z0.2000
G00 X45.2120 Y-9.6520
G01 Z-2.2000
G01 Z0
G00 Z0.2000
G00 X45.2120 Y-12.1920
G01 Z-2.2000
G01 Z0
G00 Z0.2000
G00 X45.2120 Y-14.7320
G01 Z-2.2000
G01 Z0
G00 Z0.2000
G00 X45.2120 Y-17.2720
G01 Z-2.2000
G01 Z0
G00 Z0.2000
G00 X45.2120 Y-19.8120
G01 Z-2.2000
G01 Z0
G00 Z0.2000
G00 X45.2120 Y-22.3520
G01 Z-2.2000
G01 Z0
G00 Z0.2000
G00 X45.2120 Y-24.8920
G01 Z-2.2000
G01 Z0
G00 Z0.2000
G00 X45.2120 Y-27.4320
G01 Z-2.2000
G01 Z0
G00 Z0.2000
G00 X45.2120 Y-29.9720
G01 Z-2.2000
G01 Z0
G00 Z0.2000
G00 X45.2120 Y-32.5120
G01 Z-2.2000
G01 Z0
G00 Z0.2000
G00 X45.2120 Y-35.0520
G01 Z-2.2000
G01 Z0
G00 Z0.2000
G00 X45.2120 Y-37.5920
G01 Z-2.2000
G01 Z0
G00 Z0.2000
G00 X45.2120 Y-40.1320
G01 Z-2.2000
G01 Z0
G00 Z0.2000
G00 X45.2120 Y-42.6720
G01 Z-2.2000
G01 Z0
G00 Z0.2000
G00 X45.2120 Y-45.2120
G01 Z-2.2000
G01 Z0
G00 Z0.2000
G00 X45.2120 Y-47.7520
G01 Z-2.2000
G01 Z0
G00 Z0.2000
G00 X42.6720 Y-47.7520
G01 Z-2.2000
G01 Z0
G00 Z0.2000
G00 X42.6720 Y-45.2120
G01 Z-2.2000
G01 Z0
G00 Z0.2000
G00 X42.6720 Y-42.6720
G01 Z-2.2000
G01 Z0
G00 Z0.2000
G00 X42.6720 Y-40.1320
G01 Z-2.2000
G01 Z0
G00 Z0.2000
G00 X42.6720 Y-37.5920
G01 Z-2.2000
G01 Z0
G00 Z0.2000
G00 X42.6720 Y-35.0520
G01 Z-2.2000
G01 Z0
G00 Z0.2000
G00 X42.6720 Y-32.5120
G01 Z-2.2000
G01 Z0
G00 Z0.2000
G00 X42.6720 Y-29.9720
G01 Z-2.2000
G01 Z0
G00 Z0.2000
G00 X42.6720 Y-27.4320
G01 Z-2.2000
G01 Z0
G00 Z0.2000
G00 X42.6720 Y-24.8920
G01 Z-2.2000
G01 Z0
G00 Z0.2000
G00 X42.6720 Y-22.3520
G01 Z-2.2000
G01 Z0
G00 Z0.2000
G00 X42.6720 Y-19.8120
G01 Z-2.2000
G01 Z0
G00 Z0.2000
G00 X42.6720 Y-17.2720
G01 Z-2.2000
G01 Z0
G00 Z0.2000
G00 X42.6720 Y-14.7320
G01 Z-2.2000
G01 Z0
G00 Z0.2000
G00 X42.6720 Y-12.1920
G01 Z-2.2000
G01 Z0
G00 Z0.2000
G00 X42.6720 Y-9.6520
G01 Z-2.2000
G01 Z0
G00 Z0.2000
G00 X42.6720 Y-7.1120
G01 Z-2.2000
G01 Z0
G00 Z0.2000
G00 X42.6720 Y-4.5720
G01 Z-2.2000
G01 Z0
G00 Z0.2000
G00 X42.6720 Y-2.0320
G01 Z-2.2000
G01 Z0
G00 Z0.2000
M03 S1000.0
G00 X13.9700 Y-55.8800
G01 Z-2.2000
G01 Z0
G00 Z0.2000
G00 X13.9700 Y-58.4200
G01 Z-2.2000
G01 Z0
G00 Z0.2000
G00 X13.9700 Y-60.9600
G01 Z-2.2000
G01 Z0
G00 Z0.2000
G00 X13.9700 Y-49.5300
G01 Z-2.2000
G01 Z0
G00 Z0.2000
G00 X13.9700 Y-46.9900
G01 Z-2.2000
G01 Z0
G00 Z0.2000
G00 X13.9700 Y-44.4500
G01 Z-2.2000
G01 Z0
G00 Z0.2000
M05
G00 Z0.50
G00 X0.0 Y0.0

M02