(G-CODE GENERATED BY FLATCAM v8.98 - www.flatcam.org - Version Date: 2019/10/16)

(Name: AstriPiCompute-PTH.drl_cnc_08_bottom)
(Type: G-code from Excellon)
(Units: MM)

(Created on Monday, 03 February 2020 at 18:25)

(Feedrate: 3.1496 mm/min)
(Feedrate rapids 31.4961 mm/min)

(Z_Cut: -2.1 mm)
(Z_Move: 0.3 mm)
(Z Toolchange: 0.5 mm)
(X,Y Toolchange: 0.0000, 0.0000 mm)
(Z Start: None mm)
(Z End: 0.5 mm)
(Steps per circle: 128)
(Postprocessor Excellon: grbl_11)
(X range:    0.9074 ...   65.3579  mm)
(Y range:  -41.9684 ...   -3.0954  mm)

(Spindle Speed: 1000.0 RPM)

M03  S10
G04 P2
G21
G90
G94
G17

G01 F3.15
G00 Z0.3000

M03 S1000.0
G00 X59.7814 Y-41.5684
G01 Z-2.1000
G01 Z0
G00 Z0.3000
G00 X57.7494 Y-30.9004
G01 Z-2.1000
G01 Z0
G00 Z0.3000
G00 X47.3354 Y-12.1354
G01 Z-2.1000
G01 Z0
G00 Z0.3000
G00 X41.7474 Y-12.3894
G01 Z-2.1000
G01 Z0
G00 Z0.3000
G00 X38.4454 Y-15.6914
G01 Z-2.1000
G01 Z0
G00 Z0.3000
G00 X38.4454 Y-19.5014
G01 Z-2.1000
G01 Z0
G00 Z0.3000
G00 X36.5404 Y-22.0414
G01 Z-2.1000
G01 Z0
G00 Z0.3000
G00 X33.1114 Y-16.9614
G01 Z-2.1000
G01 Z0
G00 Z0.3000
G00 X23.2054 Y-13.1514
G01 Z-2.1000
G01 Z0
G00 Z0.3000
G00 X15.5854 Y-15.1834
G01 Z-2.1000
G01 Z0
G00 Z0.3000
G00 X17.1094 Y-22.8034
G01 Z-2.1000
G01 Z0
G00 Z0.3000
G00 X22.6974 Y-22.8034
G01 Z-2.1000
G01 Z0
G00 Z0.3000
G00 X24.2214 Y-20.7714
G01 Z-2.1000
G01 Z0
G00 Z0.3000
G00 X34.0004 Y-27.3754
G01 Z-2.1000
G01 Z0
G00 Z0.3000
G00 X34.5084 Y-38.9014
G01 Z-2.1000
G01 Z0
G00 Z0.3000
G00 X47.9704 Y-31.6624
G01 Z-2.1000
G01 Z0
G00 Z0.3000
M05
G00 Z0.50
G00 X0.0 Y0.0

M02