(G-CODE GENERATED BY FLATCAM v8.98 - www.flatcam.org - Version Date: 2019/10/16)

(Name: AstriPiCompute-Edge_Cuts)
(Type: G-code from Geometry)
(Units: MM)

(Created on Friday, 24 January 2020 at 21:58)

(TOOL DIAMETER: 1.5 mm)

(Feedrate: 60.0 mm/min)
(Feedrate_Z: 10.0 mm/min)
(Feedrate rapids 3.1496 mm/min)

(Z_Cut: -1.7 mm)
(DepthPerCut: 0.0315 mm <=>54 passes)
(Z_Move: 0.2 mm)
(Z Toolchange: 0.5 mm)
(X,Y Toolchange: 0.0000, 0.0000 mm)
(Z Start: None mm)
(Z End: 0.5 mm)
(Steps per circle: 128)
(Postprocessor Geometry: grbl_11)

(X range:   -0.7789 ...   51.5789  mm)
(Y range:  -71.8989 ...    4.5889  mm)

(Spindle Speed: 1000 RPM)

M03  S10
G04 P2
G21
G90
G94
G17

G01 F60.00
G00 Z0.2000

M03 S1000
G00 X23.6539 Y4.5889
G01 F10.00
G01 Z-0.0315
G01 F60.00
G01 X2.5400 Y4.5889 F60.00
G01 X2.5215 Y4.5887 F60.00
G01 X2.5203 Y4.5887 F60.00
G01 X2.4833 Y4.5868 F60.00
G01 X2.4821 Y4.5867 F60.00
G01 X2.4453 Y4.5831 F60.00
G01 X2.4440 Y4.5830 F60.00
G01 X2.4074 Y4.5775 F60.00
G01 X2.4062 Y4.5773 F60.00
G01 X2.3873 Y4.5738 F60.00
G01 X2.3699 Y4.5701 F60.00
G01 X2.3687 Y4.5698 F60.00
G01 X2.3328 Y4.5609 F60.00
G01 X2.3317 Y4.5605 F60.00
G01 X2.2963 Y4.5498 F60.00
G01 X2.2951 Y4.5494 F60.00
G01 X2.2602 Y4.5369 F60.00
G01 X2.2504 Y4.5331 F60.00
G01 X2.2249 Y4.5223 F60.00
G01 X2.2238 Y4.5218 F60.00
G01 X2.1922 Y4.5069 F60.00
G01 X2.1892 Y4.5055 F60.00
G01 X2.1566 Y4.4880 F60.00
G01 X2.1555 Y4.4874 F60.00
G01 X2.1238 Y4.4684 F60.00
G01 X2.1228 Y4.4677 F60.00
G01 X2.0920 Y4.4472 F60.00
G01 X2.0910 Y4.4465 F60.00
G01 X2.0728 Y4.4332 F60.00
G01 X2.0613 Y4.4244 F60.00
G01 X2.0603 Y4.4237 F60.00
G01 X2.0317 Y4.4002 F60.00
G01 X2.0308 Y4.3994 F60.00
G01 X2.0034 Y4.3745 F60.00
G01 X2.0025 Y4.3737 F60.00
G01 X1.9892 Y4.3608 F60.00
G01 X-0.5508 Y1.8208 F60.00
G01 X-0.5637 Y1.8075 F60.00
G01 X-0.5645 Y1.8066 F60.00
G01 X-0.5894 Y1.7792 F60.00
G01 X-0.5902 Y1.7783 F60.00
G01 X-0.6137 Y1.7497 F60.00
G01 X-0.6144 Y1.7487 F60.00
G01 X-0.6232 Y1.7372 F60.00
G01 X-0.6365 Y1.7190 F60.00
G01 X-0.6372 Y1.7180 F60.00
G01 X-0.6577 Y1.6872 F60.00
G01 X-0.6584 Y1.6862 F60.00
G01 X-0.6774 Y1.6545 F60.00
G01 X-0.6780 Y1.6534 F60.00
G01 X-0.6955 Y1.6208 F60.00
G01 X-0.6960 Y1.6197 F60.00
G01 X-0.6969 Y1.6179 F60.00
G01 X-0.7118 Y1.5862 F60.00
G01 X-0.7123 Y1.5851 F60.00
G01 X-0.7231 Y1.5596 F60.00
G01 X-0.7269 Y1.5498 F60.00
G01 X-0.7394 Y1.5149 F60.00
G01 X-0.7398 Y1.5137 F60.00
G01 X-0.7505 Y1.4783 F60.00
G01 X-0.7509 Y1.4772 F60.00
G01 X-0.7598 Y1.4413 F60.00
G01 X-0.7601 Y1.4401 F60.00
G01 X-0.7638 Y1.4227 F60.00
G01 X-0.7673 Y1.4038 F60.00
G01 X-0.7675 Y1.4026 F60.00
G01 X-0.7730 Y1.3660 F60.00
G01 X-0.7731 Y1.3647 F60.00
G01 X-0.7767 Y1.3279 F60.00
G01 X-0.7768 Y1.3267 F60.00
G01 X-0.7787 Y1.2897 F60.00
G01 X-0.7787 Y1.2885 F60.00
G01 X-0.7789 Y1.2700 F60.00
G01 X-0.7789 Y-31.9011 F60.00
G00 X-0.7789 Y-31.9011
G01 F10.00
G01 Z-0.0630
G01 F60.00
G01 X-0.7789 Y1.2700 F60.00
G01 X-0.7787 Y1.2885 F60.00
G01 X-0.7787 Y1.2897 F60.00
G01 X-0.7768 Y1.3267 F60.00
G01 X-0.7767 Y1.3279 F60.00
G01 X-0.7731 Y1.3647 F60.00
G01 X-0.7730 Y1.3660 F60.00
G01 X-0.7675 Y1.4026 F60.00
G01 X-0.7673 Y1.4038 F60.00
G01 X-0.7638 Y1.4227 F60.00
G01 X-0.7601 Y1.4401 F60.00
G01 X-0.7598 Y1.4413 F60.00
G01 X-0.7509 Y1.4772 F60.00
G01 X-0.7505 Y1.4783 F60.00
G01 X-0.7398 Y1.5137 F60.00
G01 X-0.7394 Y1.5149 F60.00
G01 X-0.7269 Y1.5498 F60.00
G01 X-0.7231 Y1.5596 F60.00
G01 X-0.7123 Y1.5851 F60.00
G01 X-0.7118 Y1.5862 F60.00
G01 X-0.6969 Y1.6179 F60.00
G01 X-0.6960 Y1.6197 F60.00
G01 X-0.6955 Y1.6208 F60.00
G01 X-0.6780 Y1.6534 F60.00
G01 X-0.6774 Y1.6545 F60.00
G01 X-0.6584 Y1.6862 F60.00
G01 X-0.6577 Y1.6872 F60.00
G01 X-0.6372 Y1.7180 F60.00
G01 X-0.6365 Y1.7190 F60.00
G01 X-0.6232 Y1.7372 F60.00
G01 X-0.6144 Y1.7487 F60.00
G01 X-0.6137 Y1.7497 F60.00
G01 X-0.5902 Y1.7783 F60.00
G01 X-0.5894 Y1.7792 F60.00
G01 X-0.5645 Y1.8066 F60.00
G01 X-0.5637 Y1.8075 F60.00
G01 X-0.5508 Y1.8208 F60.00
G01 X1.9892 Y4.3608 F60.00
G01 X2.0025 Y4.3737 F60.00
G01 X2.0034 Y4.3745 F60.00
G01 X2.0308 Y4.3994 F60.00
G01 X2.0317 Y4.4002 F60.00
G01 X2.0603 Y4.4237 F60.00
G01 X2.0613 Y4.4244 F60.00
G01 X2.0728 Y4.4332 F60.00
G01 X2.0910 Y4.4465 F60.00
G01 X2.0920 Y4.4472 F60.00
G01 X2.1228 Y4.4677 F60.00
G01 X2.1238 Y4.4684 F60.00
G01 X2.1555 Y4.4874 F60.00
G01 X2.1566 Y4.4880 F60.00
G01 X2.1892 Y4.5055 F60.00
G01 X2.1922 Y4.5069 F60.00
G01 X2.2238 Y4.5218 F60.00
G01 X2.2249 Y4.5223 F60.00
G01 X2.2504 Y4.5331 F60.00
G01 X2.2602 Y4.5369 F60.00
G01 X2.2951 Y4.5494 F60.00
G01 X2.2963 Y4.5498 F60.00
G01 X2.3317 Y4.5605 F60.00
G01 X2.3328 Y4.5609 F60.00
G01 X2.3687 Y4.5698 F60.00
G01 X2.3699 Y4.5701 F60.00
G01 X2.3873 Y4.5738 F60.00
G01 X2.4062 Y4.5773 F60.00
G01 X2.4074 Y4.5775 F60.00
G01 X2.4440 Y4.5830 F60.00
G01 X2.4453 Y4.5831 F60.00
G01 X2.4821 Y4.5867 F60.00
G01 X2.4833 Y4.5868 F60.00
G01 X2.5203 Y4.5887 F60.00
G01 X2.5215 Y4.5887 F60.00
G01 X2.5400 Y4.5889 F60.00
G01 X23.6539 Y4.5889 F60.00
G00 X23.6539 Y4.5889
G01 F10.00
G01 Z-0.0945
G01 F60.00
G01 X2.5400 Y4.5889 F60.00
G01 X2.5215 Y4.5887 F60.00
G01 X2.5203 Y4.5887 F60.00
G01 X2.4833 Y4.5868 F60.00
G01 X2.4821 Y4.5867 F60.00
G01 X2.4453 Y4.5831 F60.00
G01 X2.4440 Y4.5830 F60.00
G01 X2.4074 Y4.5775 F60.00
G01 X2.4062 Y4.5773 F60.00
G01 X2.3873 Y4.5738 F60.00
G01 X2.3699 Y4.5701 F60.00
G01 X2.3687 Y4.5698 F60.00
G01 X2.3328 Y4.5609 F60.00
G01 X2.3317 Y4.5605 F60.00
G01 X2.2963 Y4.5498 F60.00
G01 X2.2951 Y4.5494 F60.00
G01 X2.2602 Y4.5369 F60.00
G01 X2.2504 Y4.5331 F60.00
G01 X2.2249 Y4.5223 F60.00
G01 X2.2238 Y4.5218 F60.00
G01 X2.1922 Y4.5069 F60.00
G01 X2.1892 Y4.5055 F60.00
G01 X2.1566 Y4.4880 F60.00
G01 X2.1555 Y4.4874 F60.00
G01 X2.1238 Y4.4684 F60.00
G01 X2.1228 Y4.4677 F60.00
G01 X2.0920 Y4.4472 F60.00
G01 X2.0910 Y4.4465 F60.00
G01 X2.0728 Y4.4332 F60.00
G01 X2.0613 Y4.4244 F60.00
G01 X2.0603 Y4.4237 F60.00
G01 X2.0317 Y4.4002 F60.00
G01 X2.0308 Y4.3994 F60.00
G01 X2.0034 Y4.3745 F60.00
G01 X2.0025 Y4.3737 F60.00
G01 X1.9892 Y4.3608 F60.00
G01 X-0.5508 Y1.8208 F60.00
G01 X-0.5637 Y1.8075 F60.00
G01 X-0.5645 Y1.8066 F60.00
G01 X-0.5894 Y1.7792 F60.00
G01 X-0.5902 Y1.7783 F60.00
G01 X-0.6137 Y1.7497 F60.00
G01 X-0.6144 Y1.7487 F60.00
G01 X-0.6232 Y1.7372 F60.00
G01 X-0.6365 Y1.7190 F60.00
G01 X-0.6372 Y1.7180 F60.00
G01 X-0.6577 Y1.6872 F60.00
G01 X-0.6584 Y1.6862 F60.00
G01 X-0.6774 Y1.6545 F60.00
G01 X-0.6780 Y1.6534 F60.00
G01 X-0.6955 Y1.6208 F60.00
G01 X-0.6960 Y1.6197 F60.00
G01 X-0.6969 Y1.6179 F60.00
G01 X-0.7118 Y1.5862 F60.00
G01 X-0.7123 Y1.5851 F60.00
G01 X-0.7231 Y1.5596 F60.00
G01 X-0.7269 Y1.5498 F60.00
G01 X-0.7394 Y1.5149 F60.00
G01 X-0.7398 Y1.5137 F60.00
G01 X-0.7505 Y1.4783 F60.00
G01 X-0.7509 Y1.4772 F60.00
G01 X-0.7598 Y1.4413 F60.00
G01 X-0.7601 Y1.4401 F60.00
G01 X-0.7638 Y1.4227 F60.00
G01 X-0.7673 Y1.4038 F60.00
G01 X-0.7675 Y1.4026 F60.00
G01 X-0.7730 Y1.3660 F60.00
G01 X-0.7731 Y1.3647 F60.00
G01 X-0.7767 Y1.3279 F60.00
G01 X-0.7768 Y1.3267 F60.00
G01 X-0.7787 Y1.2897 F60.00
G01 X-0.7787 Y1.2885 F60.00
G01 X-0.7789 Y1.2700 F60.00
G01 X-0.7789 Y-31.9011 F60.00
G00 X-0.7789 Y-31.9011
G01 F10.00
G01 Z-0.1260
G01 F60.00
G01 X-0.7789 Y1.2700 F60.00
G01 X-0.7787 Y1.2885 F60.00
G01 X-0.7787 Y1.2897 F60.00
G01 X-0.7768 Y1.3267 F60.00
G01 X-0.7767 Y1.3279 F60.00
G01 X-0.7731 Y1.3647 F60.00
G01 X-0.7730 Y1.3660 F60.00
G01 X-0.7675 Y1.4026 F60.00
G01 X-0.7673 Y1.4038 F60.00
G01 X-0.7638 Y1.4227 F60.00
G01 X-0.7601 Y1.4401 F60.00
G01 X-0.7598 Y1.4413 F60.00
G01 X-0.7509 Y1.4772 F60.00
G01 X-0.7505 Y1.4783 F60.00
G01 X-0.7398 Y1.5137 F60.00
G01 X-0.7394 Y1.5149 F60.00
G01 X-0.7269 Y1.5498 F60.00
G01 X-0.7231 Y1.5596 F60.00
G01 X-0.7123 Y1.5851 F60.00
G01 X-0.7118 Y1.5862 F60.00
G01 X-0.6969 Y1.6179 F60.00
G01 X-0.6960 Y1.6197 F60.00
G01 X-0.6955 Y1.6208 F60.00
G01 X-0.6780 Y1.6534 F60.00
G01 X-0.6774 Y1.6545 F60.00
G01 X-0.6584 Y1.6862 F60.00
G01 X-0.6577 Y1.6872 F60.00
G01 X-0.6372 Y1.7180 F60.00
G01 X-0.6365 Y1.7190 F60.00
G01 X-0.6232 Y1.7372 F60.00
G01 X-0.6144 Y1.7487 F60.00
G01 X-0.6137 Y1.7497 F60.00
G01 X-0.5902 Y1.7783 F60.00
G01 X-0.5894 Y1.7792 F60.00
G01 X-0.5645 Y1.8066 F60.00
G01 X-0.5637 Y1.8075 F60.00
G01 X-0.5508 Y1.8208 F60.00
G01 X1.9892 Y4.3608 F60.00
G01 X2.0025 Y4.3737 F60.00
G01 X2.0034 Y4.3745 F60.00
G01 X2.0308 Y4.3994 F60.00
G01 X2.0317 Y4.4002 F60.00
G01 X2.0603 Y4.4237 F60.00
G01 X2.0613 Y4.4244 F60.00
G01 X2.0728 Y4.4332 F60.00
G01 X2.0910 Y4.4465 F60.00
G01 X2.0920 Y4.4472 F60.00
G01 X2.1228 Y4.4677 F60.00
G01 X2.1238 Y4.4684 F60.00
G01 X2.1555 Y4.4874 F60.00
G01 X2.1566 Y4.4880 F60.00
G01 X2.1892 Y4.5055 F60.00
G01 X2.1922 Y4.5069 F60.00
G01 X2.2238 Y4.5218 F60.00
G01 X2.2249 Y4.5223 F60.00
G01 X2.2504 Y4.5331 F60.00
G01 X2.2602 Y4.5369 F60.00
G01 X2.2951 Y4.5494 F60.00
G01 X2.2963 Y4.5498 F60.00
G01 X2.3317 Y4.5605 F60.00
G01 X2.3328 Y4.5609 F60.00
G01 X2.3687 Y4.5698 F60.00
G01 X2.3699 Y4.5701 F60.00
G01 X2.3873 Y4.5738 F60.00
G01 X2.4062 Y4.5773 F60.00
G01 X2.4074 Y4.5775 F60.00
G01 X2.4440 Y4.5830 F60.00
G01 X2.4453 Y4.5831 F60.00
G01 X2.4821 Y4.5867 F60.00
G01 X2.4833 Y4.5868 F60.00
G01 X2.5203 Y4.5887 F60.00
G01 X2.5215 Y4.5887 F60.00
G01 X2.5400 Y4.5889 F60.00
G01 X23.6539 Y4.5889 F60.00
G00 X23.6539 Y4.5889
G01 F10.00
G01 Z-0.1575
G01 F60.00
G01 X2.5400 Y4.5889 F60.00
G01 X2.5215 Y4.5887 F60.00
G01 X2.5203 Y4.5887 F60.00
G01 X2.4833 Y4.5868 F60.00
G01 X2.4821 Y4.5867 F60.00
G01 X2.4453 Y4.5831 F60.00
G01 X2.4440 Y4.5830 F60.00
G01 X2.4074 Y4.5775 F60.00
G01 X2.4062 Y4.5773 F60.00
G01 X2.3873 Y4.5738 F60.00
G01 X2.3699 Y4.5701 F60.00
G01 X2.3687 Y4.5698 F60.00
G01 X2.3328 Y4.5609 F60.00
G01 X2.3317 Y4.5605 F60.00
G01 X2.2963 Y4.5498 F60.00
G01 X2.2951 Y4.5494 F60.00
G01 X2.2602 Y4.5369 F60.00
G01 X2.2504 Y4.5331 F60.00
G01 X2.2249 Y4.5223 F60.00
G01 X2.2238 Y4.5218 F60.00
G01 X2.1922 Y4.5069 F60.00
G01 X2.1892 Y4.5055 F60.00
G01 X2.1566 Y4.4880 F60.00
G01 X2.1555 Y4.4874 F60.00
G01 X2.1238 Y4.4684 F60.00
G01 X2.1228 Y4.4677 F60.00
G01 X2.0920 Y4.4472 F60.00
G01 X2.0910 Y4.4465 F60.00
G01 X2.0728 Y4.4332 F60.00
G01 X2.0613 Y4.4244 F60.00
G01 X2.0603 Y4.4237 F60.00
G01 X2.0317 Y4.4002 F60.00
G01 X2.0308 Y4.3994 F60.00
G01 X2.0034 Y4.3745 F60.00
G01 X2.0025 Y4.3737 F60.00
G01 X1.9892 Y4.3608 F60.00
G01 X-0.5508 Y1.8208 F60.00
G01 X-0.5637 Y1.8075 F60.00
G01 X-0.5645 Y1.8066 F60.00
G01 X-0.5894 Y1.7792 F60.00
G01 X-0.5902 Y1.7783 F60.00
G01 X-0.6137 Y1.7497 F60.00
G01 X-0.6144 Y1.7487 F60.00
G01 X-0.6232 Y1.7372 F60.00
G01 X-0.6365 Y1.7190 F60.00
G01 X-0.6372 Y1.7180 F60.00
G01 X-0.6577 Y1.6872 F60.00
G01 X-0.6584 Y1.6862 F60.00
G01 X-0.6774 Y1.6545 F60.00
G01 X-0.6780 Y1.6534 F60.00
G01 X-0.6955 Y1.6208 F60.00
G01 X-0.6960 Y1.6197 F60.00
G01 X-0.6969 Y1.6179 F60.00
G01 X-0.7118 Y1.5862 F60.00
G01 X-0.7123 Y1.5851 F60.00
G01 X-0.7231 Y1.5596 F60.00
G01 X-0.7269 Y1.5498 F60.00
G01 X-0.7394 Y1.5149 F60.00
G01 X-0.7398 Y1.5137 F60.00
G01 X-0.7505 Y1.4783 F60.00
G01 X-0.7509 Y1.4772 F60.00
G01 X-0.7598 Y1.4413 F60.00
G01 X-0.7601 Y1.4401 F60.00
G01 X-0.7638 Y1.4227 F60.00
G01 X-0.7673 Y1.4038 F60.00
G01 X-0.7675 Y1.4026 F60.00
G01 X-0.7730 Y1.3660 F60.00
G01 X-0.7731 Y1.3647 F60.00
G01 X-0.7767 Y1.3279 F60.00
G01 X-0.7768 Y1.3267 F60.00
G01 X-0.7787 Y1.2897 F60.00
G01 X-0.7787 Y1.2885 F60.00
G01 X-0.7789 Y1.2700 F60.00
G01 X-0.7789 Y-31.9011 F60.00
G00 X-0.7789 Y-31.9011
G01 F10.00
G01 Z-0.1890
G01 F60.00
G01 X-0.7789 Y1.2700 F60.00
G01 X-0.7787 Y1.2885 F60.00
G01 X-0.7787 Y1.2897 F60.00
G01 X-0.7768 Y1.3267 F60.00
G01 X-0.7767 Y1.3279 F60.00
G01 X-0.7731 Y1.3647 F60.00
G01 X-0.7730 Y1.3660 F60.00
G01 X-0.7675 Y1.4026 F60.00
G01 X-0.7673 Y1.4038 F60.00
G01 X-0.7638 Y1.4227 F60.00
G01 X-0.7601 Y1.4401 F60.00
G01 X-0.7598 Y1.4413 F60.00
G01 X-0.7509 Y1.4772 F60.00
G01 X-0.7505 Y1.4783 F60.00
G01 X-0.7398 Y1.5137 F60.00
G01 X-0.7394 Y1.5149 F60.00
G01 X-0.7269 Y1.5498 F60.00
G01 X-0.7231 Y1.5596 F60.00
G01 X-0.7123 Y1.5851 F60.00
G01 X-0.7118 Y1.5862 F60.00
G01 X-0.6969 Y1.6179 F60.00
G01 X-0.6960 Y1.6197 F60.00
G01 X-0.6955 Y1.6208 F60.00
G01 X-0.6780 Y1.6534 F60.00
G01 X-0.6774 Y1.6545 F60.00
G01 X-0.6584 Y1.6862 F60.00
G01 X-0.6577 Y1.6872 F60.00
G01 X-0.6372 Y1.7180 F60.00
G01 X-0.6365 Y1.7190 F60.00
G01 X-0.6232 Y1.7372 F60.00
G01 X-0.6144 Y1.7487 F60.00
G01 X-0.6137 Y1.7497 F60.00
G01 X-0.5902 Y1.7783 F60.00
G01 X-0.5894 Y1.7792 F60.00
G01 X-0.5645 Y1.8066 F60.00
G01 X-0.5637 Y1.8075 F60.00
G01 X-0.5508 Y1.8208 F60.00
G01 X1.9892 Y4.3608 F60.00
G01 X2.0025 Y4.3737 F60.00
G01 X2.0034 Y4.3745 F60.00
G01 X2.0308 Y4.3994 F60.00
G01 X2.0317 Y4.4002 F60.00
G01 X2.0603 Y4.4237 F60.00
G01 X2.0613 Y4.4244 F60.00
G01 X2.0728 Y4.4332 F60.00
G01 X2.0910 Y4.4465 F60.00
G01 X2.0920 Y4.4472 F60.00
G01 X2.1228 Y4.4677 F60.00
G01 X2.1238 Y4.4684 F60.00
G01 X2.1555 Y4.4874 F60.00
G01 X2.1566 Y4.4880 F60.00
G01 X2.1892 Y4.5055 F60.00
G01 X2.1922 Y4.5069 F60.00
G01 X2.2238 Y4.5218 F60.00
G01 X2.2249 Y4.5223 F60.00
G01 X2.2504 Y4.5331 F60.00
G01 X2.2602 Y4.5369 F60.00
G01 X2.2951 Y4.5494 F60.00
G01 X2.2963 Y4.5498 F60.00
G01 X2.3317 Y4.5605 F60.00
G01 X2.3328 Y4.5609 F60.00
G01 X2.3687 Y4.5698 F60.00
G01 X2.3699 Y4.5701 F60.00
G01 X2.3873 Y4.5738 F60.00
G01 X2.4062 Y4.5773 F60.00
G01 X2.4074 Y4.5775 F60.00
G01 X2.4440 Y4.5830 F60.00
G01 X2.4453 Y4.5831 F60.00
G01 X2.4821 Y4.5867 F60.00
G01 X2.4833 Y4.5868 F60.00
G01 X2.5203 Y4.5887 F60.00
G01 X2.5215 Y4.5887 F60.00
G01 X2.5400 Y4.5889 F60.00
G01 X23.6539 Y4.5889 F60.00
G00 X23.6539 Y4.5889
G01 F10.00
G01 Z-0.2205
G01 F60.00
G01 X2.5400 Y4.5889 F60.00
G01 X2.5215 Y4.5887 F60.00
G01 X2.5203 Y4.5887 F60.00
G01 X2.4833 Y4.5868 F60.00
G01 X2.4821 Y4.5867 F60.00
G01 X2.4453 Y4.5831 F60.00
G01 X2.4440 Y4.5830 F60.00
G01 X2.4074 Y4.5775 F60.00
G01 X2.4062 Y4.5773 F60.00
G01 X2.3873 Y4.5738 F60.00
G01 X2.3699 Y4.5701 F60.00
G01 X2.3687 Y4.5698 F60.00
G01 X2.3328 Y4.5609 F60.00
G01 X2.3317 Y4.5605 F60.00
G01 X2.2963 Y4.5498 F60.00
G01 X2.2951 Y4.5494 F60.00
G01 X2.2602 Y4.5369 F60.00
G01 X2.2504 Y4.5331 F60.00
G01 X2.2249 Y4.5223 F60.00
G01 X2.2238 Y4.5218 F60.00
G01 X2.1922 Y4.5069 F60.00
G01 X2.1892 Y4.5055 F60.00
G01 X2.1566 Y4.4880 F60.00
G01 X2.1555 Y4.4874 F60.00
G01 X2.1238 Y4.4684 F60.00
G01 X2.1228 Y4.4677 F60.00
G01 X2.0920 Y4.4472 F60.00
G01 X2.0910 Y4.4465 F60.00
G01 X2.0728 Y4.4332 F60.00
G01 X2.0613 Y4.4244 F60.00
G01 X2.0603 Y4.4237 F60.00
G01 X2.0317 Y4.4002 F60.00
G01 X2.0308 Y4.3994 F60.00
G01 X2.0034 Y4.3745 F60.00
G01 X2.0025 Y4.3737 F60.00
G01 X1.9892 Y4.3608 F60.00
G01 X-0.5508 Y1.8208 F60.00
G01 X-0.5637 Y1.8075 F60.00
G01 X-0.5645 Y1.8066 F60.00
G01 X-0.5894 Y1.7792 F60.00
G01 X-0.5902 Y1.7783 F60.00
G01 X-0.6137 Y1.7497 F60.00
G01 X-0.6144 Y1.7487 F60.00
G01 X-0.6232 Y1.7372 F60.00
G01 X-0.6365 Y1.7190 F60.00
G01 X-0.6372 Y1.7180 F60.00
G01 X-0.6577 Y1.6872 F60.00
G01 X-0.6584 Y1.6862 F60.00
G01 X-0.6774 Y1.6545 F60.00
G01 X-0.6780 Y1.6534 F60.00
G01 X-0.6955 Y1.6208 F60.00
G01 X-0.6960 Y1.6197 F60.00
G01 X-0.6969 Y1.6179 F60.00
G01 X-0.7118 Y1.5862 F60.00
G01 X-0.7123 Y1.5851 F60.00
G01 X-0.7231 Y1.5596 F60.00
G01 X-0.7269 Y1.5498 F60.00
G01 X-0.7394 Y1.5149 F60.00
G01 X-0.7398 Y1.5137 F60.00
G01 X-0.7505 Y1.4783 F60.00
G01 X-0.7509 Y1.4772 F60.00
G01 X-0.7598 Y1.4413 F60.00
G01 X-0.7601 Y1.4401 F60.00
G01 X-0.7638 Y1.4227 F60.00
G01 X-0.7673 Y1.4038 F60.00
G01 X-0.7675 Y1.4026 F60.00
G01 X-0.7730 Y1.3660 F60.00
G01 X-0.7731 Y1.3647 F60.00
G01 X-0.7767 Y1.3279 F60.00
G01 X-0.7768 Y1.3267 F60.00
G01 X-0.7787 Y1.2897 F60.00
G01 X-0.7787 Y1.2885 F60.00
G01 X-0.7789 Y1.2700 F60.00
G01 X-0.7789 Y-31.9011 F60.00
G00 X-0.7789 Y-31.9011
G01 F10.00
G01 Z-0.2520
G01 F60.00
G01 X-0.7789 Y1.2700 F60.00
G01 X-0.7787 Y1.2885 F60.00
G01 X-0.7787 Y1.2897 F60.00
G01 X-0.7768 Y1.3267 F60.00
G01 X-0.7767 Y1.3279 F60.00
G01 X-0.7731 Y1.3647 F60.00
G01 X-0.7730 Y1.3660 F60.00
G01 X-0.7675 Y1.4026 F60.00
G01 X-0.7673 Y1.4038 F60.00
G01 X-0.7638 Y1.4227 F60.00
G01 X-0.7601 Y1.4401 F60.00
G01 X-0.7598 Y1.4413 F60.00
G01 X-0.7509 Y1.4772 F60.00
G01 X-0.7505 Y1.4783 F60.00
G01 X-0.7398 Y1.5137 F60.00
G01 X-0.7394 Y1.5149 F60.00
G01 X-0.7269 Y1.5498 F60.00
G01 X-0.7231 Y1.5596 F60.00
G01 X-0.7123 Y1.5851 F60.00
G01 X-0.7118 Y1.5862 F60.00
